<?xml version="1.0" encoding="UTF-8"?>
<map version="1.11" tiledversion="1.11.2" orientation="orthogonal" renderorder="right-down" width="16" height="12" tilewidth="40" tileheight="40" infinite="0" nextlayerid="8" nextobjectid="21">
 <editorsettings>
  <export target="castle_room_kris.lua" format="lua"/>
 </editorsettings>
 <properties>
  <property name="inside" type="bool" value="true"/>
  <property name="music" value="castletown"/>
 </properties>
 <tileset firstgid="1" source="../../../tilesets/castle_town_bg.tsx"/>
 <imagelayer id="2" name="bg_image">
  <image source="../../../../../assets/sprites/world/castle_town/room_kris.png" width="640" height="480"/>
 </imagelayer>
 <objectgroup id="7" name="objects_room_elements">
  <object id="18" gid="50" x="300" y="206" width="97" height="98"/>
  <object id="19" gid="51" x="462" y="406" width="38" height="38"/>
 </objectgroup>
 <objectgroup color="#0000ff" id="3" name="collision">
  <object id="1" x="0" y="408" width="294" height="72"/>
  <object id="2" x="368" y="406" width="272" height="74"/>
  <object id="4" x="500" y="0" width="140" height="406"/>
  <object id="5" x="0" y="0" width="121" height="408"/>
  <object id="6" x="120" y="128" width="392" height="40"/>
  <object id="7" x="400" y="160" width="93" height="115"/>
  <object id="8" x="309" y="160" width="79" height="42"/>
  <object id="9" x="145" y="160" width="140" height="39"/>
 </objectgroup>
 <objectgroup color="#ff00ff" id="5" name="objects">
  <object id="10" name="transition" x="294" y="480" width="74" height="40">
   <properties>
    <property name="map" value="dark/castletown/castle_2f"/>
    <property name="marker" value="entry_kris"/>
   </properties>
  </object>
  <object id="12" name="interactable" x="410" y="169" width="84" height="100">
   <properties>
    <property name="text1" value="{hometown.text.it_s_your_bed_7cef8dacdb}"/>
    <property name="text2" value="{hometown.text.it_feels_incredibly_soft_like_sleeping_on_a_drea_6a38861f7d}"/>
   </properties>
  </object>
  <object id="13" name="interactable" x="316" y="161" width="45" height="43">
   <properties>
    <property name="cutscene" value="castle_room_kris.manual_stand"/>
   </properties>
  </object>
  <object id="16" name="interactable" x="217" y="159" width="61" height="39">
   <properties>
    <property name="text1" value="{hometown.text.it_s_a_shelf_76a512df1b}"/>
    <property name="text2" value="{hometown.text.all_sorts_of_keepsakes_could_be_put_here_665ca88dac}"/>
   </properties>
  </object>
  <object id="17" name="interactable" x="151" y="160" width="47" height="39">
   <properties>
    <property name="text1" value="{hometown.text.it_s_a_wardrobe_full_of_all_sorts_of_different_c_46ef21e8ab}"/>
    <property name="text2" value="{hometown.text.you_could_wear_whatever_you_want_f034e07f68}"/>
   </properties>
  </object>
  <object id="20" name="interactable" x="470" y="386" width="20" height="20">
   <properties>
    <property name="cutscene" value="castle_room_kris.moss"/>
   </properties>
  </object>
 </objectgroup>
 <objectgroup color="#5500ff" id="6" name="markers">
  <object id="14" name="entry" x="339" y="434">
   <point/>
  </object>
  <object id="15" name="spawn" x="339" y="434">
   <point/>
  </object>
 </objectgroup>
</map>
