<?xml version="1.0" encoding="UTF-8"?>
<map version="1.11" tiledversion="1.11.2" orientation="orthogonal" renderorder="right-down" width="16" height="12" tilewidth="40" tileheight="40" infinite="0" backgroundcolor="#000000" nextlayerid="17" nextobjectid="51">
 <editorsettings>
  <export target="castle_room_lancer.lua" format="lua"/>
 </editorsettings>
 <properties>
  <property name="inside" type="bool" value="true"/>
  <property name="music" value="castletown"/>
 </properties>
 <tileset firstgid="1" source="../../../tilesets/castle_cardcastle.tsx"/>
 <tileset firstgid="145" source="../../../tilesets/castle_throneroom.tsx"/>
 <tileset firstgid="235" source="../../../tilesets/castle_town_bg.tsx"/>
 <layer id="1" name="tiles" width="16" height="12">
  <data encoding="csv">
0,0,0,0,25,0,0,0,0,0,0,27,0,0,0,0,
0,0,0,0,25,0,0,0,0,0,0,27,0,0,0,0,
0,0,0,0,25,0,0,0,0,0,0,27,0,0,0,0,
0,0,0,0,1,2,2,2,2,2,2,3,0,0,0,0,
0,0,0,0,7,0,0,0,0,0,0,9,0,0,0,0,
0,0,0,0,7,0,0,0,0,0,0,9,0,0,0,0,
0,0,0,0,7,0,0,0,0,0,0,9,0,0,0,0,
0,0,0,0,13,14,14,5,4,14,14,15,0,0,0,0,
0,0,0,0,0,0,0,7,9,0,0,0,0,0,0,0,
0,0,0,0,0,0,0,7,9,0,0,0,0,0,0,0,
0,0,0,0,0,0,0,7,9,0,0,0,0,0,0,0,
0,0,0,0,0,0,0,7,9,0,0,0,0,0,0,0
</data>
 </layer>
 <objectgroup id="10" name="objects_tiles_deco">
  <object id="1" gid="220" x="180" y="150" width="40" height="40"/>
  <object id="2" gid="221" x="220" y="150" width="40" height="40"/>
  <object id="3" gid="222" x="260" y="150" width="40" height="40"/>
  <object id="4" gid="226" x="180" y="190" width="40" height="40"/>
  <object id="6" gid="228" x="260" y="190" width="40" height="40"/>
  <object id="7" gid="234" x="260" y="230" width="40" height="40"/>
  <object id="8" gid="232" x="180" y="230" width="40" height="40"/>
  <object id="9" gid="233" x="220" y="230" width="40" height="40"/>
  <object id="10" gid="227" x="220" y="190" width="40" height="40"/>
  <object id="11" gid="179" x="390" y="180" width="40" height="40"/>
  <object id="12" gid="180" x="430" y="180" width="40" height="40"/>
  <object id="13" gid="186" x="410" y="240" width="40" height="40"/>
  <object id="14" gid="18" x="210" y="70" width="40" height="40"/>
  <object id="15" gid="174" x="320" y="240" width="40" height="40"/>
  <object id="16" gid="174" x="370" y="300" width="40" height="40"/>
  <object id="17" gid="174" x="270" y="280" width="40" height="40"/>
  <object id="18" gid="174" x="190" y="290" width="40" height="40"/>
 </objectgroup>
 <objectgroup color="#0000ff" id="14" name="collision">
  <object id="23" x="160" y="80" width="360" height="40"/>
  <object id="24" x="480" y="120" width="40" height="240"/>
  <object id="25" x="360" y="320" width="120" height="40"/>
  <object id="26" x="360" y="360" width="40" height="120"/>
  <object id="27" x="240" y="320" width="40" height="160"/>
  <object id="28" x="120" y="320" width="120" height="40"/>
  <object id="29" x="120" y="80" width="40" height="240"/>
  <object id="31" x="160" y="120" width="130" height="100"/>
 </objectgroup>
 <objectgroup color="#ff00ff" id="12" name="objects">
  <object id="32" name="transition" x="280" y="480" width="80" height="40">
   <properties>
    <property name="map" value="dark/castletown/castle_2f"/>
    <property name="marker" value="entry_lancer"/>
    <property name="sound" value="reverse_splat"/>
   </properties>
  </object>
  <object id="35" name="interactable" x="160" y="110" width="130" height="110">
   <properties>
    <property name="text" value="{hometown.text.it_s_a_bikeless_bed_264280806f}"/>
   </properties>
  </object>
  <object id="36" name="interactable" x="390" y="150" width="60" height="32">
   <properties>
    <property name="cutscene" value="castle_room_lancer.music_player"/>
   </properties>
  </object>
  <object id="37" name="interactable" x="420" y="210" width="20" height="30">
   <properties>
    <property name="text" value="{hometown.text.it_s_some_kind_of_digging_implement_769835eef9}"/>
   </properties>
  </object>
  <object id="38" name="interactable" x="370" y="270" width="30" height="20">
   <properties>
    <property name="text" value="{hometown.text.there_s_salsa_buried_in_the_ground_here_029324803b}"/>
   </properties>
  </object>
  <object id="39" name="interactable" x="320" y="210" width="30" height="20">
   <properties>
    <property name="text" value="{hometown.text.it_s_a_hole_wait_5_presumably_dug_for_fun_e8a95e2da3}"/>
   </properties>
  </object>
  <object id="40" name="interactable" x="270" y="250" width="30" height="20">
   <properties>
    <property name="text" value="{hometown.text.it_s_a_hole_made_recreationally_85a23712c9}"/>
   </properties>
  </object>
  <object id="41" name="interactable" x="190" y="260" width="30" height="20">
   <properties>
    <property name="text1" value="{hometown.text.you_found_20_rupys_in_the_hole_abba163464}"/>
    <property name="text2" value="{hometown.text.unfortunately_wait_5_that_s_not_a_useful_currenc_7a3f287c67}"/>
   </properties>
  </object>
  <object id="47" name="npc" x="320" y="90">
   <properties>
    <property name="actor" value="castle_town/lancerpainting"/>
    <property name="script" value="castle_room_lancer_painting"/>
   </properties>
   <point/>
  </object>
  <object id="48" name="npc" x="360" y="90">
   <properties>
    <property name="actor" value="castle_town/lancerpainting"/>
    <property name="script" value="castle_room_lancer_painting"/>
   </properties>
   <point/>
  </object>
  <object id="49" name="npc" x="400" y="90">
   <properties>
    <property name="actor" value="castle_town/lancerpainting"/>
    <property name="script" value="castle_room_lancer_painting"/>
   </properties>
   <point/>
  </object>
  <object id="50" name="npc" x="440" y="90">
   <properties>
    <property name="actor" value="castle_town/lancerpainting"/>
    <property name="script" value="castle_room_lancer_painting"/>
   </properties>
   <point/>
  </object>
 </objectgroup>
 <objectgroup color="#aa00ff" id="15" name="markers">
  <object id="33" name="entry" x="326" y="435">
   <point/>
  </object>
  <object id="34" name="spawn" x="319" y="464">
   <point/>
  </object>
 </objectgroup>
</map>
