<?xml version="1.0" encoding="UTF-8"?>
<map version="1.11" tiledversion="1.11.2" orientation="orthogonal" renderorder="right-down" width="16" height="12" tilewidth="40" tileheight="40" infinite="0" nextlayerid="6" nextobjectid="17">
 <editorsettings>
  <export target="castle_room_ralsei.lua" format="lua"/>
 </editorsettings>
 <properties>
  <property name="inside" type="bool" value="true"/>
  <property name="music" value="castletown"/>
 </properties>
 <imagelayer id="2" name="bg">
  <image source="../../../../../assets/sprites/world/castle_town/room_ralsei.png" width="640" height="480"/>
 </imagelayer>
 <objectgroup color="#ff00ff" id="5" name="objects">
  <object id="16" name="transition" x="280" y="480" width="80" height="40">
   <properties>
    <property name="facing" value="down"/>
    <property name="map" value="dark/castletown/castle_3f"/>
    <property name="marker" value="entry_ralsei"/>
   </properties>
  </object>
 </objectgroup>
 <objectgroup color="#ff00ff" id="4" name="markers">
  <object id="14" name="spawn" x="320" y="440">
   <point/>
  </object>
 </objectgroup>
 <objectgroup color="#5500ff" id="3" name="collision">
  <object id="6" x="80" y="200" width="40" height="200"/>
  <object id="7" x="80" y="400" width="200" height="40"/>
  <object id="8" x="240" y="440" width="40" height="40"/>
  <object id="9" x="360" y="400" width="160" height="40"/>
  <object id="10" x="360" y="440" width="40" height="40"/>
  <object id="12" x="520" y="200" width="40" height="240"/>
  <object id="13" x="80" y="160" width="480" height="40"/>
 </objectgroup>
</map>
