<?xml version="1.0" encoding="UTF-8"?>
<map version="1.11" tiledversion="1.11.2" orientation="orthogonal" renderorder="right-down" width="16" height="12" tilewidth="40" tileheight="40" infinite="0" nextlayerid="7" nextobjectid="42">
 <editorsettings>
  <export target="data.lua" format="lua"/>
 </editorsettings>
 <properties>
  <property name="border" value="leaves"/>
  <property name="inside" type="bool" value="true"/>
  <property name="light" type="bool" value="true"/>
  <property name="music" value="hometown"/>
 </properties>
 <imagelayer id="2" name="room">
  <image source="../../../../../../../assets/sprites/world/maps/hometown/interior/library_lobby.png" width="640" height="480"/>
 </imagelayer>
 <objectgroup color="#5500ff" id="3" name="collision">
  <object id="1" x="360" y="400" width="40" height="80"/>
  <object id="2" x="240" y="400" width="40" height="80"/>
  <object id="3" x="400" y="400" width="160" height="40"/>
  <object id="4" x="80" y="400" width="160" height="40"/>
  <object id="6" x="40" y="0" width="40" height="440"/>
  <object id="7" x="80" y="0" width="480" height="40"/>
  <object id="8" x="560" y="0" width="40" height="280"/>
  <object id="9" x="560" y="400" width="40" height="40"/>
  <object id="10" x="576" y="280" width="40" height="120"/>
  <object id="16" x="396" y="40" width="48" height="120"/>
  <object id="17" x="518" y="40" width="42" height="120"/>
  <object id="19" x="362" y="108" width="34" height="40"/>
  <object id="26" x="80" y="338" width="168" height="62"/>
  <object id="27" x="418" y="336" width="104" height="62"/>
  <object id="38" x="230" y="118" width="48" height="30"/>
 </objectgroup>
 <objectgroup color="#ff00ff" id="4" name="objects">
  <object id="18" name="transition" x="444" y="120" width="72" height="40">
   <properties>
    <property name="exit_delay" type="float" value="0.3"/>
    <property name="facing" value="up"/>
    <property name="map" value="light/hometown/interior/library_library"/>
    <property name="marker" value="spawn"/>
    <property name="sound" value="escaped"/>
   </properties>
  </object>
  <object id="20" name="transition" x="278" y="108" width="84" height="40">
   <properties>
    <property name="exit_delay" type="float" value="0.3"/>
    <property name="exit_sound" value="doorclose"/>
    <property name="facing" value="up"/>
    <property name="map" value="light/hometown/interior/library_computer"/>
    <property name="marker" value="spawn"/>
    <property name="sound" value="dooropen"/>
   </properties>
  </object>
  <object id="21" name="transition" x="280" y="480" width="80" height="40">
   <properties>
    <property name="facing" value="down"/>
    <property name="map" value="light/hometown/town_south"/>
    <property name="marker" value="entrylibrary"/>
   </properties>
  </object>
  <object id="11" name="interactable" x="398" y="212" width="58" height="82">
   <properties>
    <property name="solid" type="bool" value="true"/>
    <property name="text1" value="{hometown.text.there_s_a_crude_drawing_of_an_ice_cube_wearing_a_a524c6311c}"/>
    <property name="text2" value="{hometown.text.the_teenzone_where_teen_s_can_be_kid_s_21528fa43b}"/>
    <property name="text3" value="{hometown.text.a_feeling_of_immense_relief_washes_over_you_c9e6b61f9d}"/>
   </properties>
  </object>
  <object id="12" name="interactable" x="80" y="206" width="78" height="86">
   <properties>
    <property name="solid" type="bool" value="true"/>
    <property name="text1" value="{hometown.text.it_s_an_unlabelled_book_you_look_inside_9f4ecb824a}"/>
    <property name="text2" value="{hometown.text.oh_i_accidentally_returned_my_personal_journal_i_645848b92e}"/>
    <property name="text3" value="{hometown.text.oh_no_they_re_putting_it_into_their_catalogue_bcb581288d}"/>
    <property name="text4" value="{hometown.text.oh_no_i_have_to_take_it_out_every_time_i_want_to_bf218cc700}"/>
   </properties>
  </object>
  <object id="14" name="interactable" x="80" y="74" width="78" height="86">
   <properties>
    <property name="solid" type="bool" value="true"/>
    <property name="text1" value="{hometown.text.lord_of_the_hammer_9964d33e38}"/>
    <property name="text2" value="{hometown.text.first_in_the_award_winning_fiction_series_by_lau_18e4ba9254}"/>
   </properties>
  </object>
  <object id="28" name="interactable" x="158" y="74" width="68" height="86">
   <properties>
    <property name="solid" type="bool" value="true"/>
    <property name="text1" value="{hometown.text.it_s_a_book_of_magic_tricks_d8d03abff1}"/>
    <property name="text2" value="{hometown.text.most_of_them_require_orbs_or_floating_hands_82d5e9d6a8}"/>
   </properties>
  </object>
  <object id="29" name="interactable" x="158" y="206" width="78" height="86">
   <properties>
    <property name="solid" type="bool" value="true"/>
    <property name="text1">* (There's a book here.)
[wait:5]* (You lick the page...)
[wait:5]* (It's delicious!)</property>
    <property name="text2" value="{hometown.text.this_must_be_what_they_meant_by_flavor_text_0340cfd589}"/>
   </properties>
  </object>
  <object id="15" name="interactable" x="226" y="108" width="52" height="40">
   <properties>
    <property name="flagcheck" value="!hometown_digisetup"/>
    <property name="solid" type="bool" value="true"/>
    <property name="text1">* (Computer Lab.)
[wait:5]* (Please surf the web responsibly.)</property>
    <property name="text2" value="{hometown.text.in_fact_wait_5_maybe_don_t_do_it_at_all_4c9461df40}"/>
   </properties>
  </object>
  <object id="30" name="interactable" x="456" y="212" width="104" height="82">
   <properties>
    <property name="solid" type="bool" value="true"/>
    <property name="text1" value="{hometown.text.it_s_the_weekly_cartoon_review_c396f10805}"/>
    <property name="text2" value="{hometown.text.just_looking_at_cartoon_criticism_is_sapping_you_d662bb2b98}"/>
   </properties>
  </object>
 </objectgroup>
 <objectgroup color="#7f00ff" id="5" name="markers">
  <object id="22" name="entrylibrary" x="480" y="200">
   <point/>
  </object>
  <object id="23" name="entrycyber" x="320" y="188">
   <point/>
  </object>
  <object id="25" name="spawn" x="320" y="440">
   <point/>
  </object>
 </objectgroup>
 <imagelayer id="6" name="over">
  <image source="../../../../../../../assets/sprites/world/maps/hometown/interior/library_lobbyover.png" width="640" height="480"/>
 </imagelayer>
</map>
