<?xml version="1.0" encoding="UTF-8"?>
<map version="1.11" tiledversion="1.11.2" orientation="orthogonal" renderorder="right-down" width="16" height="12" tilewidth="40" tileheight="40" infinite="0" nextlayerid="9" nextobjectid="30">
 <editorsettings>
  <export target="data.lua" format="lua"/>
 </editorsettings>
 <properties>
  <property name="border" value="leaves"/>
  <property name="inside" type="bool" value="true"/>
  <property name="light" type="bool" value="true"/>
  <property name="music" value="deltarune/home"/>
  <property name="name" value="Kris's Room"/>
 </properties>
 <tileset firstgid="1" source="../../../../../tilesets/hometownobjects.tsx"/>
 <imagelayer id="2" name="room">
  <image source="../../../../../../../assets/sprites/world/maps/hometown/torielhouse/kris_room.png" width="640" height="480"/>
 </imagelayer>
 <objectgroup id="6" name="objects_room_night" visible="0">
  <object id="21" gid="78" x="0" y="480" width="640" height="480">
   <properties>
    <property name="night" type="int" value="1"/>
   </properties>
  </object>
 </objectgroup>
 <objectgroup color="#5500ff" id="3" name="collision">
  <object id="1" x="80" y="400" width="210" height="40"/>
  <object id="2" x="250" y="440" width="40" height="40"/>
  <object id="3" x="40" y="80" width="40" height="360"/>
  <object id="4" x="40" y="40" width="520" height="40"/>
  <object id="5" x="560" y="40" width="40" height="400"/>
  <object id="6" x="370" y="400" width="190" height="40"/>
  <object id="7" x="370" y="440" width="40" height="40"/>
 </objectgroup>
 <objectgroup color="#ff00ff" id="4" name="objects_party">
  <object id="8" name="interactable" x="190" y="200" width="82" height="40">
   <properties>
    <property name="solid" type="bool" value="true"/>
    <property name="text" value="{hometown.text.a_very_old_school_id_with_an_embarrassing_haircu_acbe3587aa}"/>
   </properties>
  </object>
  <object id="9" name="interactable" x="378" y="200" width="82" height="40">
   <properties>
    <property name="solid" type="bool" value="true"/>
    <property name="text" value="{hometown.text.there_s_nothing_useful_in_the_drawer_5f6ad47ac1}"/>
   </properties>
  </object>
  <object id="10" name="interactable" x="272" y="160" width="106" height="40">
   <properties>
    <property name="nighttext1" value="{hometown.text.it_s_a_quiet_night_outside_e034bb4cd6}"/>
    <property name="solid" type="bool" value="true"/>
    <property name="text1" value="{hometown.text.it_s_a_beautiful_day_outside_b9bd775b89}"/>
    <property name="text2" value="{hometown.text.text_9727d4d874}"/>
    <property name="text3" value="{hometown.text.you_felt_a_strange_feeling_of_judgement_2767f1800e}"/>
   </properties>
  </object>
  <object id="11" name="interactable" x="80" y="196" width="100" height="120">
   <properties>
    <property name="cutscene" value="hometown.asriel_bed"/>
    <property name="solid" type="bool" value="true"/>
   </properties>
  </object>
  <object id="12" name="interactable" x="466" y="200" width="94" height="120">
   <properties>
    <property name="solid" type="bool" value="true"/>
    <property name="text1" value="{hometown.text.underneath_the_bed_is_an_old_cartridge_of_cat_pe_5de1c8f39d}"/>
    <property name="text2" value="{hometown.text.catti_catty_can_be_seen_faintly_written_on_it_in_8eda4a77d2}"/>
   </properties>
  </object>
  <object id="13" gid="34" x="470" y="390" width="74" height="60">
   <properties>
    <property name="solid" type="bool" value="true"/>
   </properties>
  </object>
  <object id="14" gid="35" x="466" y="274" width="92" height="76">
   <properties>
    <property name="day" type="int" value="1"/>
   </properties>
  </object>
  <object id="15" gid="37" x="86" y="400" width="106" height="64"/>
  <object id="16" name="interactable" x="90" y="366" width="92" height="34">
   <properties>
    <property name="solid" type="bool" value="true"/>
    <property name="text1" value="{hometown.text.on_the_computer_s_desktop_is_a_folder_called_epi_5402080567}"/>
    <property name="text2" value="{hometown.text.it_s_a_poorly_drawn_design_for_a_game_67bbc986ff}"/>
    <property name="text3" value="{hometown.text.seems_the_last_boss_is_a_creature_with_giant_rai_5c9513b952}"/>
    <property name="text4" value="{hometown.text.doesn_t_seem_like_this_game_ever_saw_the_light_o_c5caa2b9c3}"/>
   </properties>
  </object>
  <object id="17" name="interactable" x="486" y="354" width="58" height="36">
   <properties>
    <property name="solid" type="bool" value="true"/>
    <property name="text" value="{hometown.text.it_s_a_cage_50782ffee0}"/>
   </properties>
  </object>
  <object id="18" name="interactable" x="532" y="322" width="24" height="28">
   <properties>
    <property name="text" value="{hometown.text.it_s_stained_d1dae2417b}"/>
   </properties>
  </object>
  <object id="20" name="transition" x="290" y="480" width="80" height="40">
   <properties>
    <property name="facing" value="down"/>
    <property name="map" value="light/hometown/torielhouse/toriel_hallway"/>
    <property name="marker" value="spawn"/>
   </properties>
  </object>
  <object id="27" name="savepoint" x="306" y="219" width="40" height="40"/>
 </objectgroup>
 <objectgroup id="7" name="objects_night" visible="0">
  <object id="23" gid="33" x="470" y="390" width="74" height="60">
   <properties>
    <property name="night" type="int" value="1"/>
   </properties>
  </object>
  <object id="24" gid="79" x="86" y="400" width="106" height="64">
   <properties>
    <property name="night" type="int" value="1"/>
   </properties>
  </object>
 </objectgroup>
 <objectgroup color="#ff00ff" id="5" name="markers">
  <object id="19" name="spawn" x="330" y="300">
   <point/>
  </object>
  <object id="29" name="entry" x="330" y="440">
   <point/>
  </object>
 </objectgroup>
 <objectgroup color="#00aa00" id="8" name="controllers">
  <object id="26" name="hometowndaynight" x="0" y="0">
   <point/>
  </object>
 </objectgroup>
</map>
