<?xml version="1.0" encoding="UTF-8"?>
<map version="1.10" tiledversion="1.12.2" orientation="orthogonal" renderorder="right-down" width="50" height="30" tilewidth="40" tileheight="40" infinite="0" nextlayerid="113" nextobjectid="32">
 <editorsettings>
  <export target="forest2.lua" format="lua"/>
 </editorsettings>
 <properties>
  <property name="music" value="bloom_f"/>
 </properties>
 <tileset firstgid="1" source="../tilesets/Forest.tsx"/>
 <layer id="6" name="Tile Layer 1" width="50" height="30">
  <data encoding="csv">
575,576,577,578,0,0,0,0,0,0,0,0,0,0,0,0,453,454,455,456,0,0,0,0,0,0,0,0,0,0,0,93,94,94,94,95,0,0,0,0,0,0,0,0,0,0,0,0,0,0,
615,616,617,618,0,0,0,0,0,0,0,0,0,0,0,0,493,494,495,496,0,0,0,0,0,0,0,0,0,0,0,93,94,94,94,95,0,0,0,0,0,0,0,0,0,0,0,19,0,0,
655,656,657,658,0,0,0,0,0,0,453,454,455,456,457,458,533,534,535,536,0,0,0,19,0,0,19,0,0,0,0,93,94,94,94,95,0,0,0,19,0,0,0,0,0,0,0,0,0,0,
46,46,46,46,46,46,46,46,46,43,493,494,495,496,497,498,573,574,575,576,0,0,0,0,0,0,0,0,0,19,0,93,94,94,94,95,0,0,0,0,0,0,0,0,0,0,0,0,0,0,
86,82,86,86,86,86,86,86,86,87,533,534,535,536,537,538,613,614,615,616,0,0,0,0,0,0,0,0,0,0,0,93,94,94,94,95,0,0,0,0,0,0,0,0,0,19,0,0,0,0,
86,86,86,86,86,86,86,86,86,87,573,574,575,576,577,578,653,654,655,656,0,0,0,0,0,0,0,19,0,0,0,93,94,94,94,95,0,0,0,0,19,0,0,0,0,0,0,0,0,0,
86,86,86,86,86,86,86,82,86,87,613,614,615,616,617,618,0,0,0,0,0,0,0,19,19,0,0,0,0,0,0,93,94,94,94,95,0,0,0,0,0,0,0,0,0,0,19,0,0,0,
86,86,86,82,86,86,86,86,86,87,653,654,655,656,657,658,454,455,456,457,0,0,0,0,0,0,0,0,0,0,0,93,94,94,94,95,0,0,0,0,0,0,0,0,0,0,0,0,0,0,
86,86,86,86,86,86,86,86,86,87,0,0,0,0,0,493,494,495,496,497,0,0,0,0,0,0,19,0,0,0,0,93,94,94,94,95,0,0,18,0,0,0,0,0,0,0,0,0,0,0,
126,126,126,126,86,86,86,86,86,87,0,0,99,0,0,533,534,535,536,537,0,19,0,0,0,0,0,0,0,0,0,93,94,94,94,95,0,0,0,0,0,0,0,0,0,0,0,0,0,0,
0,0,0,0,85,86,82,86,82,87,0,0,0,0,0,573,574,575,576,577,0,0,0,0,0,0,0,0,0,19,0,93,94,94,94,95,0,0,0,0,0,0,0,0,0,0,0,19,0,0,
0,0,0,0,81,86,86,86,86,87,0,0,0,0,99,613,614,615,616,617,0,0,0,0,0,0,0,0,0,0,0,93,94,94,94,95,0,0,18,0,0,0,0,0,0,0,0,19,0,0,
0,0,0,0,81,86,86,86,86,87,0,242,243,244,0,653,654,655,656,657,0,0,242,243,244,0,53,55,0,0,0,93,94,94,94,95,0,0,18,0,0,0,0,0,0,0,0,0,0,0,
0,0,0,0,81,86,82,86,86,86,46,46,42,46,46,42,46,46,46,42,46,46,46,46,46,46,51,94,54,54,54,94,94,94,94,95,0,0,0,0,0,0,0,0,0,0,0,0,0,0,
0,0,0,0,85,86,86,86,86,86,86,86,86,86,86,86,86,86,86,86,86,86,86,86,86,86,91,94,94,94,94,94,94,94,94,95,0,0,0,0,0,0,0,18,0,0,0,0,0,0,
0,0,99,0,85,86,86,82,86,82,86,86,82,86,86,82,86,86,82,86,86,86,86,86,86,86,91,94,94,94,94,94,94,94,94,95,0,0,0,0,0,0,0,0,0,0,0,0,0,0,
0,0,0,0,85,86,86,86,82,86,86,86,86,86,82,86,86,86,86,86,86,86,86,86,86,86,91,94,94,94,94,94,94,94,94,95,0,0,0,18,0,0,0,0,0,0,0,0,0,0,
457,458,0,0,85,86,82,86,86,86,86,86,86,86,86,86,86,86,86,86,86,86,86,86,86,86,91,94,94,94,94,94,94,94,94,95,0,0,0,0,0,0,18,0,0,0,0,0,0,0,
497,498,0,0,85,86,86,86,86,86,82,86,86,82,86,82,86,86,86,82,86,86,86,86,86,86,91,94,94,94,94,94,94,94,94,95,0,18,0,0,0,0,0,0,0,0,0,20,0,0,
537,538,0,0,125,122,126,126,126,126,126,126,126,126,122,126,126,126,126,126,126,126,86,86,86,86,91,94,94,94,94,94,94,94,94,95,0,0,0,0,0,0,0,0,0,0,0,0,0,0,
577,578,0,0,0,0,0,0,0,0,0,0,0,0,0,0,0,0,0,0,0,0,85,86,86,86,91,94,94,94,94,94,94,94,94,94,55,0,0,0,0,20,0,0,0,0,20,0,0,0,
617,618,0,0,0,0,0,0,0,0,0,0,0,0,453,454,455,456,457,458,0,0,125,126,126,126,131,94,94,94,94,94,94,94,94,94,94,54,54,54,54,54,54,54,54,54,54,54,54,54,
657,658,0,0,99,0,0,0,0,0,0,0,0,0,493,494,495,496,497,498,0,0,0,0,0,0,93,94,94,94,94,94,94,94,94,94,94,94,94,94,94,94,94,94,94,94,94,94,94,94,
99,0,0,0,0,0,0,0,0,0,0,0,0,0,533,534,535,536,537,538,0,0,0,0,0,0,93,94,94,94,94,94,94,94,94,94,94,94,94,94,94,94,94,94,94,94,94,94,94,94,
0,0,453,454,455,456,457,458,0,0,99,0,0,99,573,574,575,576,577,578,0,0,0,0,0,0,93,94,94,94,94,94,94,94,94,94,94,94,94,94,94,94,94,94,94,94,94,94,94,94,
0,0,493,494,495,496,497,498,0,0,0,0,0,0,613,614,615,616,617,618,0,0,0,0,0,0,133,134,134,134,134,134,134,134,134,134,134,134,134,134,134,134,134,134,134,134,134,134,134,134,
0,0,533,534,535,536,537,538,0,0,0,0,0,0,653,654,655,656,657,658,0,0,0,0,0,0,20,0,19,19,0,0,0,0,0,0,19,0,0,0,0,0,0,0,0,0,20,0,0,0,
0,0,573,574,575,576,577,578,0,0,0,0,0,0,0,0,0,0,0,0,0,0,0,0,0,0,0,0,0,0,0,0,0,18,0,0,0,0,0,20,0,0,0,0,19,0,0,0,0,18,
0,0,613,614,615,616,617,618,0,99,0,0,0,0,0,99,0,0,0,0,0,0,0,0,0,20,0,0,0,0,20,0,20,0,0,0,0,0,19,0,0,0,20,0,0,0,20,0,0,0,
0,0,653,654,655,656,657,658,0,0,0,0,0,0,0,0,0,0,0,0,0,0,0,0,0,0,0,0,0,0,0,0,20,20,0,0,0,0,0,0,0,0,0,0,19,0,0,0,19,0
</data>
 </layer>
 <objectgroup color="#ff55ff" id="108" name="objects">
  <object id="1" name="transition" x="1960" y="810.667" width="40" height="280">
   <properties>
    <property name="map" value="forest3"/>
    <property name="marker" value="entranceA"/>
   </properties>
  </object>
  <object id="2" name="transition" x="0" y="120" width="40" height="280">
   <properties>
    <property name="map" value="forest1"/>
    <property name="marker" value="entranceB"/>
   </properties>
  </object>
  <object id="24" name="script" x="101.333" y="185.333" width="74.6667" height="77.3333">
   <properties>
    <property name="cutscene" value="musicnotif.forest"/>
   </properties>
  </object>
  <object id="27" name="interactable" x="432" y="486.667" width="137.333" height="48">
   <properties>
    <property name="text1" value="* (You try to poke your hand at the missing side of the bush)"/>
    <property name="text2">* (For a moment,[wait:5]
you saw your hand disappear)</property>
   </properties>
  </object>
 </objectgroup>
 <objectgroup color="#aa00ff" id="110" name="markers">
  <object id="9" name="spawn" x="160" y="240">
   <point/>
  </object>
  <object id="10" name="entranceA" x="120" y="240">
   <point/>
  </object>
 </objectgroup>
 <objectgroup color="#0000ff" id="109" name="collision">
  <object id="3" x="0" y="80" width="440" height="40"/>
  <object id="4" x="400" y="120" width="40" height="400"/>
  <object id="5" x="440" y="480" width="360" height="40"/>
  <object id="6" x="120" y="800" width="680" height="40"/>
  <object id="7" x="120" y="400" width="40" height="400"/>
  <object id="8" x="0" y="400" width="120" height="40"/>
  <object id="14" x="880" y="880" width="160" height="40"/>
  <object id="15" x="840" y="800" width="40" height="120"/>
  <object id="17" x="1000" y="920" width="40" height="120"/>
  <object id="18" x="1040" y="1040" width="1000" height="40"/>
  <object id="19" x="1480" y="800" width="520" height="40"/>
  <object id="20" x="1440" y="-40" width="40" height="840"/>
  <object id="21" x="1200" y="0" width="40" height="520"/>
  <object id="22" x="800" y="480" width="400" height="40"/>
  <object id="23" x="800" y="800" width="40" height="40"/>
  <object id="30" x="1201.33" y="956" width="40" height="56"/>
  <object id="31" x="1081.33" y="596" width="38.6667" height="64"/>
 </objectgroup>
 <layer id="107" name="Tile Layer 2" width="50" height="30">
  <data encoding="csv">
0,0,0,0,0,0,0,0,0,0,0,0,0,0,0,0,453,454,455,456,457,458,0,487,488,489,490,491,492,0,0,0,0,0,0,0,0,0,0,0,0,0,0,0,0,0,0,0,0,0,
0,0,0,0,0,0,0,0,0,0,0,0,0,0,0,0,493,494,495,496,497,498,0,527,528,529,530,531,532,0,0,0,0,0,0,0,0,0,0,0,0,0,0,0,0,0,0,0,0,0,
0,0,0,0,0,0,0,0,0,0,0,0,0,0,0,0,533,534,535,536,537,538,0,567,568,569,570,571,572,0,0,0,0,0,0,0,0,0,0,487,488,489,490,491,492,0,0,0,0,0,
0,0,0,0,0,0,0,0,0,0,0,0,0,0,0,0,573,574,575,576,577,578,0,607,608,609,610,611,612,0,0,0,0,0,0,0,0,0,0,527,528,529,530,531,532,0,0,0,0,0,
0,0,0,0,0,0,0,0,0,0,0,0,0,0,0,0,613,614,615,616,617,618,0,647,648,649,650,651,652,0,0,0,0,0,0,0,0,0,0,567,568,569,570,571,572,0,0,0,0,0,
0,0,0,0,0,0,0,0,0,0,0,0,0,0,0,0,653,654,655,656,657,658,0,0,0,0,0,0,0,0,0,0,0,0,0,0,0,0,0,607,608,609,610,611,612,0,0,0,0,0,
0,0,0,0,0,0,0,0,0,0,0,0,0,0,0,0,693,694,695,696,697,698,0,0,0,0,0,0,0,0,0,0,0,0,0,0,0,0,0,647,648,649,650,651,652,0,0,0,0,0,
455,456,457,458,0,0,0,0,0,0,0,0,0,0,0,0,0,0,0,0,0,0,0,0,0,0,0,0,0,0,0,0,0,0,0,0,0,0,0,0,0,0,0,0,0,0,0,0,0,0,
495,496,497,498,0,0,0,0,0,0,0,0,0,0,0,0,0,0,0,0,0,0,0,0,0,0,0,0,0,0,0,0,0,0,0,0,0,0,0,0,0,0,0,0,0,0,0,0,0,0,
535,536,537,538,0,0,0,0,0,0,0,0,0,0,0,0,0,0,0,0,0,0,0,0,0,0,0,0,0,0,0,0,0,0,0,0,0,0,0,0,0,0,0,500,501,502,0,0,0,0,
575,576,577,578,0,0,0,0,0,0,0,0,0,0,0,0,0,0,0,0,0,0,0,0,0,0,0,0,0,0,0,0,0,0,0,0,0,0,0,0,0,0,0,540,541,542,0,0,0,0,
615,616,617,618,0,0,0,0,0,0,0,0,0,0,0,0,0,0,0,0,0,0,0,0,0,0,0,0,0,0,0,0,0,0,0,0,0,0,0,0,0,0,0,580,581,582,0,0,0,0,
655,656,657,658,0,0,0,0,0,0,0,0,0,0,0,0,0,0,0,0,0,0,0,0,0,0,175,176,177,0,0,0,0,0,0,0,0,0,0,0,0,0,0,620,621,622,0,0,0,0,
0,0,0,0,0,0,0,0,0,0,0,0,0,0,0,0,0,0,0,0,0,0,0,0,0,0,215,216,217,0,0,0,0,0,0,0,0,0,0,0,0,0,0,660,661,662,0,0,0,0,
0,0,0,0,0,0,0,0,0,0,0,0,0,0,0,0,0,0,0,0,0,0,0,0,0,0,255,256,257,0,0,0,0,0,0,0,0,500,501,502,0,0,0,0,0,0,0,0,0,0,
0,0,0,0,0,0,0,0,0,0,0,0,0,0,0,0,0,0,0,0,0,0,0,0,0,0,0,0,0,0,0,0,0,0,0,0,0,540,541,542,0,0,0,453,454,455,456,457,458,459,
0,0,0,0,0,0,0,0,0,0,0,0,0,0,0,0,0,0,0,0,0,0,0,0,0,0,0,0,0,0,0,0,0,0,0,0,0,580,581,582,0,0,0,493,494,495,496,497,498,499,
0,0,0,0,0,453,454,455,456,457,458,0,0,0,0,0,0,0,0,0,0,0,0,0,0,0,0,0,0,0,0,0,0,0,0,0,0,620,621,622,0,0,0,533,534,535,536,537,538,539,
0,0,0,0,0,493,494,495,496,497,498,0,0,0,0,0,0,0,0,0,0,0,0,0,0,0,0,0,0,0,0,0,0,0,0,0,0,660,661,662,0,0,0,573,574,575,576,577,578,579,
0,0,0,0,0,533,534,535,536,537,538,0,0,0,0,0,0,0,0,0,0,0,0,0,0,0,0,0,0,0,0,0,0,0,0,0,0,0,0,0,0,0,0,613,614,615,616,617,618,619,
0,0,0,0,0,573,574,575,576,577,578,0,0,0,0,0,0,0,0,0,0,0,0,0,0,0,0,0,0,0,0,0,0,0,0,0,0,0,0,0,0,0,0,653,654,655,656,657,658,659,
0,0,0,0,0,613,614,615,616,617,618,0,0,0,0,0,0,0,0,0,0,0,0,0,0,0,0,0,0,175,176,177,0,0,0,0,0,0,0,0,0,0,0,0,0,0,0,0,0,0,
0,0,0,0,0,653,654,655,656,657,658,0,0,0,0,0,0,0,0,0,0,0,0,0,0,0,0,0,0,215,216,217,0,0,0,0,0,0,0,0,0,0,0,0,0,0,0,0,0,0,
0,0,0,0,0,0,0,0,0,0,0,0,0,0,0,0,0,0,0,0,0,0,0,0,0,0,0,0,0,255,256,257,0,0,0,0,0,0,0,0,0,0,0,0,0,0,0,0,0,0,
0,0,0,0,0,0,0,0,0,0,0,0,0,0,0,0,0,0,0,0,0,0,0,0,0,0,0,0,0,0,0,0,0,0,0,0,0,0,0,0,0,0,0,0,0,0,0,0,0,0,
0,0,0,0,0,0,0,0,0,0,0,0,0,0,0,0,0,0,0,0,0,0,0,0,0,0,0,0,0,0,0,0,0,0,0,0,0,0,0,0,0,0,0,0,0,0,0,0,0,0,
0,0,0,0,0,0,0,0,0,0,0,0,0,0,0,0,0,0,0,0,0,0,0,0,0,0,0,0,0,0,0,0,0,0,0,0,0,0,0,0,0,0,0,0,0,0,0,0,0,0,
0,0,0,0,0,0,0,0,0,0,0,0,0,0,0,0,0,0,0,0,0,487,488,489,490,491,492,0,0,0,487,488,489,490,491,492,0,487,488,489,490,491,492,0,487,488,489,490,491,492,
0,0,0,0,0,0,0,0,0,0,0,0,0,0,0,0,0,0,0,0,0,527,528,529,530,531,532,0,0,0,527,528,529,530,531,532,0,527,528,529,530,531,532,0,527,528,529,530,531,532,
0,0,0,0,0,0,0,0,0,0,0,0,0,0,0,0,0,0,0,0,0,567,568,569,570,571,572,0,0,0,567,568,569,570,571,572,0,567,568,569,570,571,572,0,567,568,569,570,571,572
</data>
 </layer>
 <imagelayer id="112" name="Image Layer 1" tintcolor="#aaaaaaaa" offsetx="-1.33333" offsety="-173.333" parallaxx="1.5" parallaxy="1.5" repeatx="1">
  <image source="../../../assets/sprites/world/Forest Roof.png" width="600" height="240"/>
 </imagelayer>
 <imagelayer id="111" name="Image Layer 1" visible="0" opacity="0.44" tintcolor="#575ed8" parallaxx="1.5" parallaxy="1.5" repeatx="1" repeaty="1">
  <image source="../../../assets/sprites/world/Forest2x.png" width="2400" height="960"/>
 </imagelayer>
</map>
