<?xml version="1.0" encoding="UTF-8"?>
<map version="1.10" tiledversion="1.11.2" orientation="orthogonal" renderorder="right-down" width="30" height="30" tilewidth="40" tileheight="40" infinite="0" nextlayerid="8" nextobjectid="33">
 <editorsettings>
  <export target="forest2a.lua" format="lua"/>
 </editorsettings>
 <properties>
  <property name="music" value="bloom_f"/>
 </properties>
 <tileset firstgid="1" source="../tilesets/Forest.tsx"/>
 <layer id="1" name="Tile Layer 1" width="30" height="30">
  <data encoding="csv">
0,0,0,0,0,0,487,488,489,490,491,492,0,0,0,0,0,487,488,489,490,491,492,0,0,0,0,0,0,0,
0,0,0,0,0,0,527,528,529,530,531,532,0,0,0,0,0,527,528,529,530,531,532,0,0,0,0,0,0,0,
0,0,0,0,0,0,567,568,569,570,571,572,0,0,0,0,0,567,568,569,570,571,572,0,0,0,0,0,0,0,
487,488,489,490,491,492,607,608,609,610,611,612,0,0,0,0,0,607,608,609,610,611,612,487,488,489,490,491,492,0,
527,528,529,530,531,532,647,648,649,650,651,652,0,0,0,0,0,647,648,649,650,651,652,527,528,529,530,531,532,0,
567,568,569,570,571,572,0,0,0,0,0,0,0,0,0,0,0,0,0,0,0,0,0,567,568,569,570,571,572,0,
607,608,609,610,611,612,0,0,0,53,54,54,54,54,54,54,54,54,54,55,0,0,0,607,608,609,610,611,612,0,
647,648,649,650,651,652,0,0,0,93,94,94,94,94,94,94,94,94,94,95,0,0,0,647,648,649,650,651,652,0,
0,0,0,0,0,0,0,0,0,93,94,94,94,94,94,94,94,94,94,95,0,0,0,0,0,0,0,0,0,0,
0,0,53,54,54,54,54,54,54,94,94,94,94,94,94,94,94,94,94,94,54,54,54,54,54,54,54,55,0,0,
0,0,93,94,94,94,94,94,94,94,94,94,94,94,94,94,94,94,94,94,94,94,94,94,94,94,94,95,0,0,
0,0,93,94,94,94,94,94,94,94,94,94,94,94,94,86,94,94,94,94,94,94,94,94,94,94,94,95,0,0,
0,0,93,94,94,94,94,94,94,94,94,94,94,94,94,86,94,94,94,94,94,94,94,94,94,94,94,95,0,0,
0,0,93,94,94,94,94,94,94,94,94,94,94,86,86,86,86,86,86,86,94,94,94,94,94,94,94,95,0,0,
0,0,93,94,94,94,94,94,94,94,94,94,94,94,94,94,94,94,94,94,94,94,94,94,94,94,94,95,0,0,
0,0,93,94,94,94,94,94,94,94,94,94,94,94,94,94,94,94,94,94,94,94,94,94,94,94,94,95,0,0,
0,0,93,94,94,94,94,94,94,94,94,94,94,94,94,94,94,94,94,94,94,94,94,94,94,94,94,95,0,0,
0,0,93,94,94,94,94,94,94,94,94,94,94,94,94,94,94,94,94,94,94,94,94,94,94,94,94,95,0,0,
0,0,93,94,94,94,94,94,94,94,94,94,94,94,94,94,94,94,94,94,94,94,94,94,94,94,94,95,0,0,
0,0,93,94,94,94,94,94,94,94,94,94,94,94,94,94,94,94,94,94,94,94,94,94,94,94,94,95,0,0,
0,0,133,134,134,134,134,134,134,134,134,94,94,94,94,94,94,94,94,134,134,134,134,134,134,134,134,135,0,0,
0,500,501,502,500,501,502,500,501,502,0,93,94,94,94,94,94,94,95,0,500,501,502,500,501,502,500,501,502,0,
0,540,541,542,540,541,542,540,541,542,0,93,94,94,94,94,94,94,95,0,540,541,542,540,541,542,540,541,542,0,
0,580,581,582,580,581,582,580,581,582,0,93,94,94,94,94,94,94,95,0,580,581,582,580,581,582,580,581,582,0,
0,620,621,622,620,621,622,620,621,622,0,93,94,94,94,94,94,94,95,0,620,621,622,620,621,622,620,621,622,0,
0,660,661,662,660,661,662,660,661,662,0,93,94,94,94,94,94,94,95,0,660,661,662,660,661,662,660,661,662,0,
0,0,0,0,0,0,0,0,0,0,0,93,94,94,94,94,94,94,95,0,0,0,0,0,0,0,0,0,0,0,
0,0,0,0,0,0,0,0,0,0,0,93,94,94,94,94,94,94,95,0,0,0,0,0,0,0,0,0,0,0,
0,0,0,0,0,0,0,500,501,502,0,93,94,94,94,94,94,94,95,0,0,0,0,0,0,0,0,0,0,0,
0,0,0,0,0,0,0,540,541,542,0,93,94,94,94,94,94,94,95,0,500,501,502,0,0,0,0,0,0,0
</data>
 </layer>
 <objectgroup color="#0000ff" id="4" name="collision">
  <object id="5" x="360" y="200" width="440" height="40"/>
  <object id="6" x="800" y="240" width="40" height="120"/>
  <object id="7" x="840" y="320" width="280" height="40"/>
  <object id="8" x="1120" y="360" width="40" height="480"/>
  <object id="9" x="760" y="840" width="360" height="40"/>
  <object id="10" x="760" y="880" width="40" height="320"/>
  <object id="11" x="400" y="840" width="40" height="360"/>
  <object id="12" x="80" y="840" width="320" height="40"/>
  <object id="13" x="40" y="360" width="40" height="480"/>
  <object id="14" x="80" y="320" width="280" height="40"/>
  <object id="15" x="320" y="240" width="40" height="80"/>
  <object id="31" x="763.045" y="520" width="37.4545" height="40.5"/>
 </objectgroup>
 <objectgroup color="#55aa7f" id="6" name="blockcollision">
  <object id="19" x="600.125" y="400.252" width="39.5" height="39.9979"/>
  <object id="20" x="639.875" y="399.876" width="40" height="119.009"/>
  <object id="22" x="558" y="400.495" width="40" height="119.009"/>
  <object id="23" x="518.333" y="479.829" width="40" height="39.6757"/>
  <object id="24" x="479.333" y="519.495" width="40" height="39.6757"/>
  <object id="25" x="682.917" y="479.334" width="117.5" height="39.9979"/>
  <object id="26" x="799.902" y="520.146" width="39.8478" height="40.5196"/>
  <object id="29" x="520" y="560.667" width="322" height="39.6667"/>
 </objectgroup>
 <objectgroup color="#aa00ff" id="3" name="markers">
  <object id="3" name="entranceA" x="600" y="1097">
   <point/>
  </object>
 </objectgroup>
 <objectgroup color="#ff55ff" id="2" name="objects">
  <object id="2" name="transition" x="440" y="1186" width="320" height="40">
   <properties>
    <property name="map" value="forest2"/>
    <property name="marker" value="entranceB"/>
   </properties>
  </object>
  <object id="16" name="shadow" x="479.572" y="1104.73">
   <point/>
  </object>
  <object id="17" name="pushblock" x="600.5" y="440.083" width="39.25" height="39.9167">
   <properties>
    <property name="inputlock" type="bool" value="false"/>
    <property name="lock" type="bool" value="true"/>
   </properties>
  </object>
  <object id="27" name="tilebutton" x="760.303" y="519.667" width="39.5455" height="41.0909"/>
  <object id="30" name="tilebutton" x="519.977" y="519.705" width="39.5455" height="41.0909">
   <properties>
    <property name="blocks" type="bool" value="true"/>
    <property name="cutscene" value="peonie.puzzle"/>
    <property name="once" type="bool" value="true"/>
   </properties>
  </object>
 </objectgroup>
 <objectgroup id="7" name="objects_party"/>
 <imagelayer id="5" name="Image Layer 1" visible="0" opacity="0.44" tintcolor="#575ed8" parallaxx="1.5" parallaxy="1.5" repeatx="1" repeaty="1">
  <image source="../../../assets/sprites/world/Forest2x.png" width="2400" height="960"/>
 </imagelayer>
</map>
