<?xml version="1.0" encoding="UTF-8"?>
<map version="1.10" tiledversion="1.11.2" orientation="orthogonal" renderorder="right-down" width="60" height="12" tilewidth="40" tileheight="40" infinite="0" nextlayerid="12" nextobjectid="46">
 <editorsettings>
  <export target="her_world8.lua" format="lua"/>
 </editorsettings>
 <properties>
  <property name="footsteps" type="bool" value="true"/>
  <property name="music" value="her_world"/>
 </properties>
 <tileset firstgid="1" source="../tilesets/herworld.tsx"/>
 <tileset firstgid="217" source="../tilesets/arena_fountain.tsx"/>
 <objectgroup id="2" name="objects_bg">
  <object id="16" gid="217" x="1880" y="80" width="398" height="102.343"/>
 </objectgroup>
 <layer id="4" name="black" width="60" height="12" tintcolor="#000000">
  <data encoding="csv">
3,3,3,3,3,3,3,3,3,3,3,3,3,3,3,3,3,3,3,3,3,3,3,3,3,3,3,3,3,3,3,3,3,3,3,3,3,3,3,3,3,3,3,0,0,88,89,90,0,0,0,0,0,0,0,0,88,89,90,0,
3,3,3,3,3,3,3,3,3,3,3,3,3,3,3,3,3,3,3,3,3,3,3,3,3,3,3,3,3,3,3,3,3,3,3,3,3,3,3,3,3,3,3,0,0,100,101,102,0,0,0,0,0,0,0,0,100,101,102,0,
3,3,3,3,3,3,3,3,3,3,3,3,3,3,3,3,3,3,3,3,3,3,3,3,3,3,3,3,3,3,3,3,3,3,3,3,3,3,3,3,3,3,3,0,0,0,89,0,0,0,0,0,0,0,0,0,100,101,102,0,
3,3,3,3,3,3,3,3,3,3,3,3,3,3,3,3,3,3,3,3,3,3,3,3,3,3,3,3,3,3,3,3,3,3,3,3,3,3,3,3,3,3,3,0,0,0,101,0,0,0,0,0,0,0,0,0,0,0,0,0,
3,3,3,3,3,3,3,3,3,3,3,3,3,3,3,3,3,3,3,3,3,3,3,3,3,3,3,3,3,3,3,3,3,3,3,3,3,3,3,3,3,3,3,0,0,0,0,0,0,0,0,0,0,0,0,0,0,0,0,0,
3,3,3,3,3,3,3,3,3,3,3,3,3,3,3,3,3,3,3,3,3,3,3,3,3,3,3,3,3,3,3,3,3,3,3,3,3,3,3,3,3,3,3,0,0,0,0,0,0,0,0,0,0,0,0,0,0,0,0,0,
3,3,3,3,3,3,3,3,3,3,3,3,3,3,3,3,3,3,3,3,3,3,3,3,3,3,3,3,3,3,3,3,3,3,3,3,3,3,3,3,3,3,3,0,0,0,0,0,0,0,0,0,0,0,0,0,0,0,0,0,
3,3,3,3,3,3,3,3,3,3,3,3,3,3,3,3,3,3,3,3,3,3,3,3,3,3,3,3,3,3,3,3,3,3,3,3,3,3,3,3,3,3,3,0,0,0,0,0,0,0,0,0,0,0,0,0,0,0,0,0,
3,3,3,3,3,3,3,3,3,3,3,3,3,3,3,3,3,3,3,3,3,3,3,3,3,3,3,3,3,3,3,3,3,3,3,3,3,3,3,3,3,3,3,0,0,0,0,0,0,0,0,0,0,0,0,0,0,0,0,0,
3,3,3,3,3,3,3,3,3,3,3,3,3,3,3,3,3,3,3,3,3,3,3,3,3,3,3,3,3,3,3,3,3,3,3,3,3,3,3,3,3,3,3,0,0,0,0,0,0,0,0,0,0,0,0,0,0,0,0,0,
3,3,3,3,3,3,3,3,3,3,3,3,3,3,3,3,3,3,3,3,3,3,3,3,3,3,3,3,3,3,3,3,3,3,3,3,3,3,3,3,3,3,3,0,0,0,0,0,0,0,0,0,0,0,0,0,0,0,0,0,
3,3,3,3,3,3,3,3,3,3,3,3,3,3,3,3,3,3,3,3,3,3,3,3,3,3,3,3,3,3,3,3,3,3,3,3,3,3,3,3,3,3,3,0,0,0,0,0,0,0,0,0,0,0,0,0,0,0,0,0
</data>
 </layer>
 <layer id="7" name="wood" width="60" height="12">
  <data encoding="csv">
0,0,0,0,0,0,0,0,0,0,0,0,0,0,0,0,0,0,0,0,0,0,0,0,0,0,0,0,0,0,0,0,0,0,0,0,0,0,0,0,0,0,0,0,0,0,0,88,89,90,98,0,0,98,76,77,78,0,0,0,
0,0,0,0,0,0,0,0,0,0,0,0,0,0,0,0,0,0,0,0,0,0,0,0,0,0,0,0,0,0,0,0,0,0,0,0,0,0,0,0,0,0,0,0,0,0,0,100,101,102,98,0,0,98,88,89,90,0,0,0,
0,0,0,0,0,0,0,0,0,0,0,0,0,0,0,0,0,0,0,0,0,0,0,0,0,0,0,0,0,0,0,0,0,0,0,0,0,0,0,0,0,0,0,0,0,0,0,0,0,0,0,0,0,0,100,101,102,0,0,0,
0,0,0,0,0,0,0,0,0,0,0,0,0,0,0,0,0,0,0,0,0,0,0,0,0,0,0,0,0,0,0,0,0,0,0,0,0,0,0,0,0,0,0,0,0,0,0,0,0,0,0,0,0,0,0,0,0,0,0,0,
0,0,0,0,0,0,0,0,0,0,0,0,0,0,0,0,0,0,0,0,0,0,0,0,0,0,0,0,0,0,0,0,0,0,0,0,0,0,0,0,0,0,0,0,0,0,0,0,0,0,0,0,0,0,0,0,0,0,0,0,
0,0,0,0,0,0,0,0,0,0,0,0,0,0,0,0,0,0,0,0,0,0,0,0,0,0,0,0,0,0,0,0,0,0,0,0,0,0,0,0,0,0,0,0,0,0,0,0,0,0,0,0,0,0,0,0,0,0,0,0,
0,0,0,0,0,0,0,0,0,0,0,0,0,0,0,0,0,0,0,0,0,0,0,0,0,0,0,0,0,0,0,0,0,0,0,0,0,0,0,0,0,0,0,0,0,0,0,0,0,0,0,0,0,0,0,0,0,0,0,0,
0,0,0,0,0,0,0,0,0,0,0,0,0,0,0,0,0,0,0,0,0,0,0,0,0,0,0,0,0,0,0,0,0,0,0,0,0,0,0,0,0,0,0,0,0,0,0,0,0,0,0,0,0,0,0,0,0,0,0,0,
0,0,0,0,0,0,0,0,0,0,0,0,0,0,0,0,0,0,0,0,0,0,0,0,0,0,0,0,0,0,0,0,0,0,0,0,0,0,0,0,0,0,0,0,0,0,0,0,0,0,0,0,0,0,0,0,0,0,0,0,
0,0,0,0,0,0,0,0,0,0,0,0,0,0,0,0,0,0,0,0,0,0,0,0,0,0,0,0,0,0,0,0,0,0,0,0,0,0,0,0,0,0,0,0,0,0,0,0,0,0,0,0,0,0,0,0,0,0,0,0,
0,0,0,0,0,0,0,0,0,0,0,0,0,0,0,0,0,0,0,0,0,0,0,0,0,0,0,0,0,0,0,0,0,0,0,0,0,0,0,0,0,0,0,0,0,0,0,0,0,0,0,0,0,0,0,0,0,0,0,0,
0,0,0,0,0,0,0,0,0,0,0,0,0,0,0,0,0,0,0,0,0,0,0,0,0,0,0,0,0,0,0,0,0,0,0,0,0,0,0,0,0,0,0,0,0,0,0,0,0,0,0,0,0,0,0,0,0,0,0,0
</data>
 </layer>
 <layer id="9" name="deco" width="60" height="12">
  <data encoding="csv">
0,0,0,0,0,0,0,0,0,0,0,0,0,0,0,0,0,0,0,0,0,0,0,0,0,0,0,0,0,0,0,0,0,0,0,0,0,0,0,0,0,0,0,0,0,134,135,136,0,0,0,0,0,0,0,0,134,135,136,0,
0,0,0,0,0,0,0,0,0,0,0,0,0,0,0,0,0,0,0,0,0,0,0,0,0,0,0,0,0,0,0,0,0,0,0,0,0,0,0,0,0,0,0,0,0,146,147,148,0,0,0,0,0,0,0,0,146,147,148,0,
0,0,0,0,0,0,0,0,0,0,0,0,0,0,0,0,0,0,0,0,0,0,0,0,0,0,0,0,0,0,0,0,0,0,0,0,0,0,0,0,0,0,0,125,126,0,0,0,0,0,0,0,0,0,0,0,0,0,0,125,
0,0,0,0,0,0,0,0,0,0,0,0,0,0,0,0,0,0,0,0,0,0,0,0,0,0,0,0,0,0,0,0,0,0,0,0,0,0,0,0,0,0,0,137,138,0,0,0,0,0,0,0,0,0,0,0,0,0,0,137,
0,0,0,0,0,0,0,0,0,0,0,0,0,0,0,0,0,0,0,0,0,0,0,0,0,0,0,0,0,0,0,0,0,0,0,0,0,0,0,0,0,0,0,149,150,0,0,0,0,0,0,0,0,0,0,0,0,0,0,149,
0,0,209,210,0,0,0,0,0,0,0,0,0,0,0,0,0,0,0,0,0,0,0,0,0,0,0,0,0,0,0,0,0,0,0,0,0,0,0,0,0,0,0,0,0,0,0,0,0,0,0,0,0,0,0,0,0,0,0,0,
0,0,0,0,0,0,0,0,0,0,0,0,0,0,0,0,0,0,0,0,0,0,0,0,0,0,0,0,0,0,0,0,0,0,0,0,0,0,0,0,0,0,0,0,0,0,0,0,0,0,0,0,0,0,0,0,0,0,0,0,
0,0,0,0,0,0,0,0,0,0,0,0,0,0,0,0,0,0,0,0,0,0,0,0,0,0,0,0,0,0,0,0,0,0,0,0,0,0,0,0,0,0,0,0,0,0,0,0,0,0,0,0,0,0,0,0,0,0,0,0,
0,0,0,0,0,0,0,0,0,0,0,0,0,0,0,0,0,0,0,0,0,0,0,0,0,0,0,0,0,0,0,0,0,0,0,0,0,0,0,0,0,0,0,0,0,0,0,0,0,0,0,0,0,0,0,0,0,0,0,0,
0,0,0,0,0,0,0,0,0,0,0,0,0,0,0,0,0,0,0,0,0,0,0,0,0,0,0,0,0,0,0,0,0,0,0,0,0,0,0,0,0,0,0,0,0,0,0,0,0,0,0,0,0,0,0,0,0,0,0,0,
0,0,0,0,0,0,0,0,0,0,0,0,0,0,0,0,0,0,0,0,0,0,0,0,0,0,0,0,0,0,0,0,0,0,0,0,0,0,0,0,0,0,0,0,0,0,0,0,0,0,0,0,0,0,0,0,0,0,0,0,
0,0,0,0,0,0,0,0,0,0,0,0,0,0,0,0,0,0,0,0,0,0,0,0,0,0,0,0,0,0,0,0,0,0,0,0,0,0,0,0,0,0,0,0,0,0,0,0,0,0,0,0,0,0,0,0,0,0,0,0
</data>
 </layer>
 <layer id="1" name="tiles" width="60" height="12">
  <data encoding="csv">
0,0,0,0,0,0,0,0,0,0,0,0,0,0,0,0,0,0,0,0,0,0,0,0,0,0,0,0,0,0,0,0,0,0,0,0,0,0,0,0,0,0,0,0,0,0,0,0,0,0,0,0,0,0,0,0,0,0,0,0,
0,0,0,0,0,0,0,0,0,0,0,0,0,0,0,0,0,0,0,0,0,0,0,0,0,0,0,0,0,0,0,0,0,0,0,0,0,0,0,0,0,0,0,0,0,4,5,4,5,4,5,4,5,4,5,4,5,4,5,0,
0,0,0,0,0,0,0,0,0,0,0,0,0,0,0,0,0,0,0,0,0,0,0,0,0,0,0,0,0,0,0,0,0,0,0,0,0,0,0,0,0,0,0,0,0,1,92,13,14,13,14,13,14,13,14,13,14,13,1,0,
0,0,0,0,0,0,0,0,0,0,0,0,0,0,0,0,0,0,0,0,0,0,0,0,0,0,0,0,0,0,0,0,0,0,0,0,0,0,0,0,0,0,0,0,0,1,15,25,15,25,25,25,25,25,25,16,25,16,1,0,
5,4,5,4,5,4,5,4,5,4,5,4,5,4,4,5,4,4,5,4,5,4,5,4,5,4,5,4,5,4,5,4,5,4,5,4,5,4,5,4,5,4,5,4,4,2,43,1610612777,16,15,25,16,15,25,16,15,2684354601,42,2,4,
91,92,14,13,14,13,14,13,14,13,14,13,14,13,91,92,14,13,14,13,14,91,92,13,14,13,14,13,14,13,91,92,14,13,14,13,14,13,14,13,14,13,14,13,13,91,92,2684354600,25,16,25,15,16,25,15,25,1610612776,91,92,13,
41,41,26,25,26,25,26,40,40,25,26,40,40,25,41,41,26,25,40,40,26,41,41,25,26,25,26,40,40,25,41,41,26,25,26,25,26,40,40,25,26,40,40,25,28,15,16,25,25,25,25,25,25,25,25,25,25,16,15,28,
38,37,38,37,38,37,38,42,43,37,38,42,43,37,38,37,38,37,42,43,38,37,38,37,38,37,38,42,43,37,38,37,38,37,38,37,38,42,43,37,38,42,43,37,38,42,43,2684354600,25,16,25,15,16,25,15,25,1610612776,42,43,38,
54,55,54,55,54,55,54,55,54,55,54,55,55,54,55,54,55,54,55,54,55,54,55,54,55,54,55,54,55,54,55,54,55,54,55,54,55,54,55,54,55,54,55,54,54,1,92,1610612777,25,15,25,25,25,25,16,25,2684354601,91,1,54,
0,64,65,66,0,0,61,62,63,0,0,64,65,66,0,0,61,62,63,0,0,64,65,66,0,0,61,62,63,0,0,64,65,66,0,0,61,62,63,0,0,64,65,66,0,2,43,37,38,37,38,37,38,37,38,37,38,42,2,0,
0,0,65,0,0,0,73,74,75,0,0,0,65,0,0,0,73,74,75,0,0,0,65,0,0,0,73,74,75,0,0,0,65,0,0,0,73,74,75,0,0,0,65,0,0,54,55,54,55,54,55,54,55,54,55,54,55,54,55,0,
0,0,65,0,0,0,85,86,87,0,0,0,65,0,0,0,85,86,87,0,0,0,65,0,0,0,85,86,87,0,0,0,65,0,0,0,85,86,87,0,0,0,65,0,0,61,62,63,87,0,64,65,65,66,0,0,61,62,63,0
</data>
 </layer>
 <layer id="11" name="deco_top" width="60" height="12">
  <data encoding="csv">
0,0,0,0,0,0,0,0,0,0,0,0,0,0,0,0,0,0,0,0,0,0,0,0,0,0,0,0,0,0,0,0,0,0,0,0,0,0,0,0,0,0,0,0,0,0,0,0,0,0,0,0,0,0,0,0,0,0,0,0,
0,0,0,0,0,0,0,0,0,0,0,0,0,0,0,0,0,0,0,0,0,0,0,0,0,0,0,0,0,0,0,0,0,0,0,0,0,0,0,0,0,0,0,0,0,0,0,0,0,0,0,0,0,0,0,0,0,0,0,0,
0,0,0,0,0,0,0,0,0,0,0,0,0,0,0,0,0,0,0,0,0,0,0,0,0,0,0,0,0,0,0,0,0,0,0,0,0,0,0,0,0,0,0,0,0,0,0,0,0,0,0,0,0,0,0,0,0,0,0,0,
0,0,0,0,0,0,0,0,0,0,0,0,0,0,0,0,0,0,0,0,0,0,0,0,0,0,0,0,0,0,0,0,0,0,0,0,0,0,0,0,0,0,0,0,0,0,0,0,0,0,0,0,0,0,0,0,0,0,0,0,
0,0,0,0,0,0,0,0,0,0,0,0,0,0,0,0,0,0,0,0,0,0,0,0,0,0,0,0,0,0,0,0,0,0,0,0,0,0,0,0,0,0,0,0,0,0,0,0,0,0,0,0,0,0,0,0,0,0,0,0,
0,0,0,0,0,0,0,0,0,0,0,0,0,0,0,0,0,0,0,0,0,0,0,0,0,0,0,0,0,0,0,0,0,0,0,0,0,0,0,0,0,0,0,0,0,0,0,0,0,0,0,0,0,0,0,0,0,0,0,0,
0,0,0,0,0,0,0,0,0,0,0,0,0,0,0,0,0,0,0,0,0,0,0,0,0,0,0,0,0,0,0,0,0,0,0,0,0,0,0,0,0,0,0,0,0,0,0,0,0,0,0,0,0,0,0,0,0,0,0,0,
0,0,0,0,0,0,0,0,0,0,0,0,0,0,0,0,0,0,0,0,0,0,0,0,0,0,0,0,0,0,0,0,0,0,0,0,0,0,0,0,0,0,0,0,0,0,0,0,0,0,0,0,0,0,0,0,0,0,0,0,
0,0,0,0,0,0,0,0,0,0,0,0,0,0,0,0,0,0,0,0,0,0,0,0,0,0,0,0,0,0,0,0,0,0,0,0,0,0,0,0,0,0,0,0,0,0,0,0,0,0,0,0,0,0,0,0,0,0,0,0,
0,0,0,0,0,0,0,0,0,0,0,0,0,0,0,0,0,0,0,0,0,0,0,0,0,0,0,0,0,0,0,0,0,0,0,0,0,0,0,0,0,0,0,0,110,111,112,0,0,0,0,0,0,0,0,0,0,110,111,112,
0,0,0,0,0,0,0,0,0,0,0,0,0,0,0,0,0,0,0,0,0,0,0,0,0,0,0,0,0,0,0,0,0,0,0,0,0,0,0,0,0,0,0,0,122,123,124,0,0,0,0,0,0,0,0,0,0,122,123,124,
0,0,0,0,0,0,0,0,0,0,0,0,0,0,0,0,0,0,0,0,0,0,0,0,0,0,0,0,0,0,0,0,0,0,0,0,0,0,0,0,0,0,0,0,134,135,136,0,0,0,0,0,0,0,0,0,0,134,135,136
</data>
 </layer>
 <objectgroup id="3" name="collision">
  <object id="2" x="-120" y="-40" width="1920" height="240"/>
  <object id="3" x="-120" y="345" width="1920" height="135"/>
  <object id="4" x="1810" y="-47" width="600" height="120"/>
  <object id="6" x="2360" y="80" width="40" height="120"/>
  <object id="7" x="2360" y="345" width="40" height="135"/>
  <object id="8" x="1800" y="425" width="560" height="55"/>
  <object id="29" x="-120" y="200" width="120" height="160"/>
 </objectgroup>
 <objectgroup id="5" name="markers">
  <object id="9" name="spawn" x="1691" y="276">
   <point/>
  </object>
  <object id="24" name="kris" x="1880" y="268">
   <point/>
  </object>
 </objectgroup>
 <objectgroup id="6" name="objects">
  <object id="22" name="script" x="1729" y="192" width="40" height="160">
   <properties>
    <property name="cutscene" value="icicle.kris"/>
    <property name="once" type="bool" value="false"/>
   </properties>
  </object>
  <object id="34" name="npc" x="1886" y="132" width="37" height="4">
   <properties>
    <property name="actor" value="angel"/>
   </properties>
  </object>
  <object id="35" name="npc" x="1925.5" y="129.5" width="37" height="4">
   <properties>
    <property name="actor" value="angel"/>
   </properties>
  </object>
  <object id="36" name="npc" x="1966.5" y="131.5" width="37" height="6">
   <properties>
    <property name="actor" value="angel"/>
   </properties>
  </object>
  <object id="37" name="npc" x="2003.5" y="132" width="37" height="6">
   <properties>
    <property name="actor" value="angel"/>
   </properties>
  </object>
  <object id="38" name="npc" x="2036.5" y="121" width="37" height="6">
   <properties>
    <property name="actor" value="angel"/>
   </properties>
  </object>
  <object id="39" name="npc" x="2064.5" y="130" width="37" height="6">
   <properties>
    <property name="actor" value="angel"/>
   </properties>
  </object>
  <object id="40" name="npc" x="2101.5" y="126" width="37" height="6">
   <properties>
    <property name="actor" value="angel"/>
   </properties>
  </object>
  <object id="41" name="npc" x="2135.5" y="132" width="37" height="6">
   <properties>
    <property name="actor" value="angel"/>
   </properties>
  </object>
  <object id="42" name="npc" x="2173.5" y="124" width="37" height="6">
   <properties>
    <property name="actor" value="angel"/>
   </properties>
  </object>
  <object id="43" name="npc" x="2209.5" y="132" width="37" height="6">
   <properties>
    <property name="actor" value="angel"/>
   </properties>
  </object>
  <object id="44" name="npc" x="2248.5" y="128" width="37" height="6">
   <properties>
    <property name="actor" value="angel"/>
   </properties>
  </object>
  <object id="45" name="npc" x="2288.5" y="127" width="37" height="6">
   <properties>
    <property name="actor" value="angel"/>
   </properties>
  </object>
 </objectgroup>
 <objectgroup id="8" name="objects_two"/>
</map>
