<?xml version="1.0" encoding="UTF-8"?>
<map version="1.10" tiledversion="1.11.2" orientation="orthogonal" renderorder="right-down" width="20" height="40" tilewidth="40" tileheight="40" infinite="0" backgroundcolor="#010110" nextlayerid="7" nextobjectid="34">
 <editorsettings>
  <export target="krisspawn.lua" format="lua"/>
 </editorsettings>
 <properties>
  <property name="music" value="wind"/>
  <property name="name" value="Receptionist Entrance"/>
 </properties>
 <tileset firstgid="1" source="../tilesets/Receptionist.tsx"/>
 <imagelayer id="3" name="bg" offsetx="-1.33333" offsety="72.6667" parallaxx="0.05" parallaxy="0.05" repeatx="1">
  <image source="../../../assets/sprites/tilesets/receptionist bg.png" width="640" height="480"/>
 </imagelayer>
 <layer id="2" name="Tile Layer 2" width="20" height="40">
  <data encoding="csv">
0,0,0,0,0,0,0,0,0,0,0,0,0,0,0,0,0,0,0,0,
0,0,0,0,0,0,0,0,0,0,0,0,0,0,0,0,0,0,0,0,
0,0,0,0,0,0,0,0,0,0,0,0,0,0,0,0,0,0,0,0,
0,0,0,263,264,0,0,0,0,0,0,0,0,0,0,0,0,0,0,0,
0,0,0,282,0,0,0,0,0,0,0,0,0,0,0,0,0,0,0,0,
0,0,0,282,0,0,0,0,0,0,0,0,0,0,0,0,0,0,0,0,
0,0,0,0,0,0,0,0,0,0,0,0,0,0,0,0,0,0,0,0,
0,0,0,320,0,0,0,0,0,0,0,0,0,0,0,0,0,0,0,0,
0,0,0,0,0,0,0,0,0,0,0,0,0,0,0,0,0,0,0,0,
0,0,0,0,0,0,0,0,0,0,0,0,0,0,0,0,0,0,0,0,
0,0,0,0,0,0,0,0,0,0,0,0,0,0,0,0,0,0,0,0,
0,0,0,0,0,0,0,0,0,0,0,0,0,0,0,0,0,0,0,0,
0,0,0,0,0,0,0,0,0,0,0,0,0,0,0,0,0,0,0,0,
0,0,0,0,0,0,0,0,0,0,0,0,0,0,0,0,0,0,0,0,
0,0,0,0,0,0,0,0,0,0,0,0,0,0,0,0,0,0,0,0,
0,0,0,0,0,0,0,0,0,0,0,0,0,0,0,0,0,0,0,0,
0,0,0,0,0,0,0,0,0,0,0,0,0,0,0,0,0,0,0,0,
0,0,0,0,0,0,0,0,0,0,0,0,0,0,0,0,0,0,0,0,
0,0,0,0,0,0,0,0,0,0,0,0,0,0,0,0,0,0,0,0,
0,0,0,0,0,0,0,0,0,0,0,0,0,0,0,0,0,0,0,0,
0,0,0,0,0,0,0,0,0,0,0,0,0,0,0,0,0,0,0,0,
0,0,0,0,0,0,0,0,0,0,0,0,0,0,0,0,0,0,0,0,
0,0,0,0,0,0,0,0,0,0,0,0,0,0,0,0,0,0,0,0,
0,0,0,0,0,0,0,0,0,0,0,0,0,0,0,0,0,0,0,0,
0,0,0,0,0,0,0,0,0,0,0,0,0,0,0,0,0,0,0,0,
0,0,0,0,0,0,0,0,0,0,0,0,0,0,0,0,0,0,0,0,
0,0,0,0,0,0,0,0,0,0,0,0,0,0,0,0,0,0,0,0,
0,0,0,0,0,0,0,0,0,0,0,0,0,0,0,0,0,0,0,0,
0,0,0,0,0,0,0,0,0,0,0,0,0,0,0,0,0,0,0,0,
0,0,0,0,0,0,0,0,0,0,0,0,0,0,0,0,0,0,0,0,
0,0,0,0,0,0,0,0,0,0,0,0,0,0,0,0,0,0,0,0,
0,0,0,0,0,0,0,0,0,0,0,0,0,0,0,0,0,0,0,0,
0,0,0,0,0,0,0,0,0,0,0,0,0,0,0,0,0,0,0,0,
0,0,0,0,0,0,0,0,0,0,0,0,0,0,0,0,0,0,0,0,
0,0,0,0,0,0,0,0,0,0,0,0,0,0,0,0,0,0,0,0,
0,0,0,0,0,0,0,0,0,0,0,0,0,0,0,0,0,0,0,0,
0,0,0,0,0,0,0,0,0,0,0,0,0,0,0,0,0,0,0,0,
0,0,0,0,0,0,0,0,0,0,0,0,0,0,0,0,0,0,0,0,
0,0,0,0,0,0,0,0,0,0,0,0,0,0,0,0,0,0,0,0,
0,0,0,0,0,0,0,0,0,0,0,0,0,0,0,0,0,0,0,0
</data>
 </layer>
 <layer id="1" name="Tile Layer 1" width="20" height="40">
  <data encoding="csv">
0,0,0,0,0,320,321,321,321,321,321,321,321,321,321,321,321,321,321,321,
0,0,0,0,0,320,321,321,321,321,321,321,321,255,256,257,321,321,321,321,
0,0,0,0,0,320,321,321,321,321,321,321,321,274,275,276,321,321,321,321,
0,0,0,0,0,225,340,340,340,340,340,340,340,293,294,295,321,321,321,321,
0,0,0,0,283,283,264,264,264,264,264,264,264,264,283,264,141,340,340,340,
0,0,0,282,284,260,260,260,260,260,282,283,283,283,283,283,284,0,0,0,
0,0,0,301,303,279,279,279,279,279,301,302,302,302,302,302,303,265,0,0,
0,0,0,263,264,283,283,283,283,283,264,264,264,264,264,264,264,284,0,0,
0,0,0,282,283,283,283,283,283,283,283,283,283,283,283,283,283,284,0,0,
0,0,0,301,302,302,302,302,65,66,66,67,302,302,302,302,302,303,0,0,
0,0,0,339,340,340,340,340,65,66,66,67,340,340,340,340,340,341,0,0,
0,0,0,0,0,0,0,0,65,66,66,67,0,0,0,0,0,0,0,0,
0,0,0,0,0,0,0,0,65,66,66,67,0,0,0,0,0,0,0,0,
0,0,0,0,0,0,0,0,65,66,66,67,0,0,0,0,0,0,0,0,
0,0,0,0,0,0,0,0,65,66,66,67,0,0,0,0,0,0,0,0,
0,0,0,0,0,0,0,0,65,66,66,67,0,0,0,0,0,0,0,0,
0,0,0,0,0,0,0,0,65,66,66,67,0,0,0,0,0,0,0,0,
0,0,0,0,0,0,0,0,65,66,66,67,0,0,0,0,0,0,0,0,
0,0,0,0,0,0,0,0,65,66,66,67,0,0,0,0,0,0,0,0,
0,0,0,0,0,0,0,0,65,66,66,67,0,0,0,0,0,0,0,0,
0,0,0,0,0,0,0,0,65,66,66,67,0,0,0,0,0,0,0,0,
0,0,0,0,0,0,0,0,65,66,66,67,0,0,0,0,0,0,0,0,
0,0,0,0,0,0,0,0,65,66,66,67,0,0,0,0,0,0,0,0,
0,0,0,0,0,0,0,0,65,66,66,67,0,0,0,0,0,0,0,0,
0,0,0,0,0,0,0,0,65,66,66,67,0,0,0,0,0,0,0,0,
0,0,0,0,0,0,0,0,84,85,66,67,0,0,0,0,0,0,0,0,
0,0,0,0,0,0,0,0,103,104,66,67,0,0,0,0,0,0,0,0,
0,0,0,0,0,0,0,0,65,66,66,67,0,0,0,0,0,0,0,0,
0,0,0,0,0,0,0,0,65,66,66,67,0,0,0,0,0,0,0,0,
0,0,0,0,0,0,0,0,65,66,66,67,0,0,0,0,0,0,0,0,
0,0,0,0,0,0,0,0,65,66,66,67,0,0,0,0,0,0,0,0,
0,0,0,0,0,0,0,0,65,66,66,67,0,0,0,0,0,0,0,0,
0,0,0,0,0,0,0,0,65,66,66,67,0,0,0,0,0,0,0,0,
0,0,0,0,0,0,0,0,65,66,66,67,0,0,0,0,0,0,0,0,
0,0,0,0,0,0,0,0,65,66,66,67,0,0,0,0,0,0,0,0,
0,0,0,0,0,0,0,0,65,66,66,67,0,0,0,0,0,0,0,0,
0,0,0,0,0,0,0,0,84,85,66,67,0,0,0,0,0,0,0,0,
0,0,0,0,0,0,0,0,84,85,66,67,0,0,0,0,0,0,0,0,
0,0,0,0,0,0,0,0,84,85,66,67,0,0,0,0,0,0,0,0,
0,0,0,0,0,0,0,0,84,85,66,67,0,0,0,0,0,0,0,0
</data>
 </layer>
 <objectgroup color="#ff00b2" id="4" name="objects">
  <object id="28" name="transition" x="551.644" y="109.455" width="62.2784" height="41.0909">
   <properties>
    <property name="map" value="recep1"/>
    <property name="marker" value="entranceA"/>
   </properties>
  </object>
  <object id="33" name="savepoint" x="168" y="319">
   <properties>
    <property name="text1">* A breeze rushes past you.[wait:5]
* Your last memory was playing piano.</property>
    <property name="text2" value="* The power of sudden transitions shine within you."/>
   </properties>
   <point/>
  </object>
 </objectgroup>
 <objectgroup color="#aa55ff" id="6" name="markers">
  <object id="29" name="entranceA" x="586.364" y="201.807">
   <point/>
  </object>
  <object id="30" name="spawn" x="400.121" y="1464.12">
   <point/>
  </object>
 </objectgroup>
 <objectgroup color="#5500ff" id="5" name="collision">
  <object id="1" x="282.909" y="351.636" width="41.0909" height="780.727"/>
  <object id="2" x="282.909" y="1132.36" width="41.0909" height="493.091"/>
  <object id="3" x="476.242" y="354.667" width="41.0909" height="1273.82"/>
  <object id="4" x="112.485" y="354.667" width="175.864" height="41.0909"/>
  <object id="5" x="85.8939" y="108.621" width="41.0909" height="246.545"/>
  <object id="6" x="113.985" y="81.0303" width="82.1818" height="41.0909"/>
  <object id="8" x="707.348" y="230.394" width="41.0909" height="205.455"/>
  <object id="9" x="507.394" y="354.667" width="221.455" height="41.0909"/>
  <object id="10" x="401.121" y="241.394" width="276.636" height="41.0909"/>
  <object id="11" x="112.485" y="231.394" width="86.1818" height="49.0909"/>
  <object id="12" x="194.667" y="108.121" width="356.656" height="41.0909"/>
  <object id="13" x="672.758" y="115.121" width="41.0909" height="127.182"/>
  <object id="14" x="610.422" y="120.121" width="73.8352" height="41.0909"/>
  <object id="15" x="523.394" y="25.9394" width="123.273" height="41.0909"/>
  <object id="18" x="613.748" y="67.4972" width="31.7521" height="57.624"/>
  <object id="19" x="526.896" y="67.2638" width="24.5145" height="40.624"/>
  <object id="20" x="551.177" y="66.7969" width="62.3368" height="23.5805"/>
  <object id="24" x="191.962" y="191.803" width="7.70455" height="41.947"/>
  <object id="25" x="399.926" y="189.447" width="7.86019" height="53.2525"/>
  <object id="27" x="301.333" y="1566.67" width="198" height="32"/>
 </objectgroup>
</map>
