<?xml version="1.0" encoding="UTF-8"?>
<map version="1.10" tiledversion="1.11.2" orientation="orthogonal" renderorder="right-down" width="30" height="30" tilewidth="40" tileheight="40" infinite="0" backgroundcolor="#010110" nextlayerid="10" nextobjectid="54">
 <editorsettings>
  <export target="recep2.lua" format="lua"/>
 </editorsettings>
 <properties>
  <property name="music" value="hallway"/>
  <property name="name" value="Receptionist Hallway"/>
 </properties>
 <tileset firstgid="1" source="../tilesets/Receptionist.tsx"/>
 <imagelayer id="2" name="bg" offsetx="61" offsety="69" parallaxx="0.05" parallaxy="0.05" repeatx="1">
  <image source="../../../assets/sprites/tilesets/receptionist bg.png" width="640" height="480"/>
 </imagelayer>
 <layer id="1" name="Tile Layer 1" width="30" height="30">
  <data encoding="csv">
0,0,0,0,0,0,0,0,0,0,0,0,0,0,0,0,0,0,0,0,0,0,0,0,0,0,0,0,0,0,
0,0,0,0,0,0,0,0,0,0,0,0,0,0,0,0,0,0,0,0,0,0,0,0,0,0,0,0,0,0,
0,0,0,0,0,0,0,0,0,0,0,0,0,0,0,0,0,0,0,0,0,0,0,0,0,0,0,0,0,0,
0,0,0,0,0,0,0,0,0,0,0,0,0,0,0,0,0,0,0,0,0,0,0,0,0,0,0,0,0,0,
0,0,0,0,0,0,0,0,0,0,0,0,0,0,0,0,0,0,0,0,0,0,0,0,0,0,0,0,0,0,
0,0,0,0,0,0,0,0,0,0,0,0,0,0,0,0,0,0,0,0,0,0,0,0,0,0,0,0,0,0,
0,0,0,0,0,0,0,0,0,0,0,0,0,0,0,0,0,0,0,0,0,0,0,0,0,0,0,0,0,0,
0,0,0,0,0,0,0,0,0,0,0,0,0,0,0,0,0,0,0,0,0,0,0,0,0,0,0,0,0,0,
0,0,0,0,0,0,0,0,0,0,0,0,0,0,0,0,0,0,0,0,0,0,0,0,0,0,0,0,0,0,
0,0,0,0,0,0,0,0,0,0,0,0,0,0,0,0,0,0,0,0,0,0,0,0,263,264,264,264,265,0,
264,264,264,264,264,264,264,264,264,264,264,264,264,264,264,264,265,0,0,0,0,0,0,0,282,283,283,283,284,0,
283,283,283,283,283,283,283,283,283,283,283,283,283,283,283,283,284,0,0,0,0,0,0,0,282,283,283,283,284,0,
283,283,283,283,283,283,283,283,283,283,283,283,283,283,283,283,284,0,0,0,0,0,0,0,301,302,302,302,303,0,
302,302,302,302,302,302,302,302,302,302,302,302,282,283,283,283,284,0,0,0,0,0,0,0,320,255,256,257,322,0,
340,340,340,340,340,340,340,340,340,340,340,340,282,283,283,283,284,0,0,0,0,0,0,0,320,274,275,276,322,0,
0,0,0,0,0,0,0,0,0,0,0,0,282,283,283,283,284,0,0,0,0,0,0,0,320,293,294,295,322,0,
0,0,0,0,0,0,0,0,0,0,0,0,282,283,283,283,284,0,0,0,0,0,0,0,320,278,279,280,322,0,
0,0,0,0,0,0,0,0,0,0,0,0,282,283,283,283,283,264,264,264,264,264,264,264,264,278,279,280,264,264,
0,0,0,0,0,0,0,0,0,0,0,0,282,283,283,283,283,283,283,283,283,283,283,283,283,283,283,283,283,283,
0,0,0,0,0,0,0,0,0,0,0,0,282,283,283,283,283,283,283,283,283,283,283,283,283,283,283,283,283,283,
0,0,0,0,0,0,0,0,0,0,0,0,282,283,283,283,283,283,283,283,283,283,283,283,283,283,283,283,283,283,
0,0,0,0,0,0,0,0,0,0,0,0,282,283,283,283,283,283,283,283,283,283,283,283,283,283,283,283,283,283,
0,0,0,0,0,263,264,264,264,264,264,264,283,283,283,283,283,284,302,302,302,302,302,302,302,302,302,302,302,302,
0,0,0,0,0,282,283,283,283,283,283,283,283,283,283,283,283,284,321,321,321,321,321,321,321,321,321,321,321,321,
0,0,0,0,0,282,283,283,283,283,283,283,283,283,283,283,283,284,321,321,321,321,321,321,321,321,321,321,321,321,
0,0,0,0,0,282,283,283,283,283,283,283,283,283,283,283,283,284,340,340,340,340,340,340,340,340,340,340,340,340,
0,0,0,0,0,282,283,283,283,283,283,283,283,283,283,283,283,284,0,0,0,0,0,0,0,0,0,0,0,0,
0,0,0,0,0,282,283,283,283,283,283,283,283,283,283,283,283,284,0,0,0,0,0,0,0,0,0,0,0,0,
0,0,0,0,0,301,302,302,302,302,302,302,302,302,302,302,302,303,0,0,0,0,0,0,0,0,0,0,0,0,
0,0,0,0,0,320,321,321,321,321,321,321,321,321,321,321,321,322,0,0,0,0,0,0,0,0,0,0,0,0
</data>
 </layer>
 <objectgroup color="#aa00ff" id="6" name="markers">
  <object id="2" name="entranceA" x="128.61" y="445.384">
   <point/>
  </object>
  <object id="31" name="entranceB" x="1064" y="744">
   <point/>
  </object>
  <object id="34" name="v5" x="204" y="460">
   <point/>
  </object>
  <object id="35" name="v1" x="266.667" y="1074.67">
   <point/>
  </object>
  <object id="36" name="v3" x="925.333" y="796">
   <point/>
  </object>
  <object id="37" name="v4" x="648" y="460">
   <point/>
  </object>
  <object id="38" name="v2" x="682.667" y="1074.67">
   <point/>
  </object>
 </objectgroup>
 <objectgroup color="#ff00ff" id="5" name="objects">
  <properties>
   <property name="map" value="recep1"/>
   <property name="marker" value="entranceB"/>
  </properties>
  <object id="1" name="transition" x="6.33333" y="405.625" width="79.5175" height="119.276">
   <properties>
    <property name="map" value="recep1"/>
    <property name="marker" value="entrance2"/>
   </properties>
  </object>
  <object id="24" name="script" x="80" y="400" width="80" height="80">
   <properties>
    <property name="cutscene" value="musicnotif.recep"/>
   </properties>
  </object>
  <object id="25" name="enemy" x="445" y="976" width="54" height="44">
   <properties>
    <property name="actor" value="virovirokun"/>
    <property name="chase" type="bool" value="true"/>
    <property name="encounter" value="virovirokun3"/>
    <property name="enemy" value="virovirokun"/>
    <property name="marker1" value="v1"/>
    <property name="marker2" value="v2"/>
    <property name="marker3" value="v3"/>
    <property name="marker4" value="v4"/>
    <property name="marker5" value="v5"/>
    <property name="once" type="bool" value="true"/>
    <property name="paceinterval" type="int" value="0"/>
    <property name="pacereturn" type="bool" value="false"/>
    <property name="pacespeed" type="int" value="8"/>
    <property name="pacetype" value="wander"/>
   </properties>
  </object>
  <object id="29" name="transition" x="1194" y="680" width="38" height="202">
   <properties>
    <property name="map" value="recep3"/>
    <property name="marker" value="entranceA"/>
   </properties>
  </object>
  <object id="30" name="transition" x="1043" y="600" width="40" height="40">
   <properties>
    <property name="map" value="recep2a"/>
    <property name="marker" value="entranceA"/>
   </properties>
  </object>
  <object id="32" name="savepoint" x="284" y="998.667">
   <properties>
    <property name="text1" value="* The power of never-ending room numbers shines within you."/>
   </properties>
   <point/>
  </object>
 </objectgroup>
 <objectgroup color="#0000ff" id="7" name="collision">
  <object id="3" x="9.33333" y="365.867" width="675.898" height="39.7587"/>
  <object id="4" x="675.232" y="405.625" width="39.7587" height="278.311"/>
  <object id="5" x="696.49" y="644.178" width="267.052" height="39.7587"/>
  <object id="6" x="963.543" y="644.178" width="39.7587" height="39.7587"/>
  <object id="7" x="1122.58" y="644.178" width="79.5175" height="39.7587"/>
  <object id="9" x="1082.82" y="485.143" width="79.5175" height="159.035"/>
  <object id="10" x="963.543" y="485.143" width="119.276" height="79.5175"/>
  <object id="11" x="963.543" y="564.66" width="79.5175" height="79.5175"/>
  <object id="12" x="711.657" y="882.73" width="506.438" height="39.7587"/>
  <object id="13" x="711.657" y="922.489" width="39.7587" height="278.311"/>
  <object id="14" x="208.127" y="1121.28" width="516.863" height="39.7587"/>
  <object id="15" x="168.368" y="882.73" width="39.7587" height="238.552"/>
  <object id="16" x="208.127" y="842.971" width="278.311" height="39.7587"/>
  <object id="17" x="446.679" y="524.902" width="39.7587" height="318.07"/>
  <object id="18" x="9.33333" y="524.902" width="437.346" height="39.7587"/>
 </objectgroup>
 <objectgroup color="#55ffff" id="9" name="enemycollision">
  <object id="39" x="9.33333" y="365.867" width="675.898" height="39.7587"/>
  <object id="40" x="675.232" y="405.625" width="39.7587" height="278.311"/>
  <object id="41" x="696.49" y="644.178" width="267.052" height="39.7587"/>
  <object id="42" x="963.543" y="644.178" width="39.7587" height="39.7587"/>
  <object id="43" x="1122.58" y="644.178" width="79.5175" height="39.7587"/>
  <object id="44" x="1082.82" y="485.143" width="79.5175" height="159.035"/>
  <object id="45" x="963.543" y="485.143" width="119.276" height="79.5175"/>
  <object id="46" x="963.543" y="564.66" width="79.5175" height="79.5175"/>
  <object id="47" x="711.657" y="882.73" width="506.438" height="39.7587"/>
  <object id="48" x="711.657" y="922.489" width="39.7587" height="278.311"/>
  <object id="49" x="208.127" y="1121.28" width="516.863" height="39.7587"/>
  <object id="50" x="168.368" y="882.73" width="39.7587" height="238.552"/>
  <object id="51" x="208.127" y="842.971" width="278.311" height="39.7587"/>
  <object id="52" x="446.679" y="524.902" width="39.7587" height="318.07"/>
  <object id="53" x="9.33333" y="524.902" width="437.346" height="39.7587"/>
 </objectgroup>
 <objectgroup id="8" name="paths"/>
 <layer id="4" name="Tile Layer 2" width="30" height="30" tintcolor="#a3a3a3" offsetx="-100" offsety="0" parallaxx="1.25">
  <data encoding="csv">
321,321,321,321,322,0,0,0,0,0,0,0,0,0,0,0,0,0,0,0,0,0,0,0,0,0,0,0,0,0,
321,321,321,321,322,0,0,0,0,0,0,0,0,0,0,0,0,0,0,0,0,0,0,0,0,0,0,0,0,0,
321,321,321,321,322,0,0,0,0,0,0,0,0,0,0,0,0,0,0,0,0,0,0,0,0,0,0,0,0,0,
321,321,321,321,322,0,0,0,0,0,0,0,0,0,0,0,0,0,0,0,0,0,0,0,0,0,0,0,0,0,
321,321,321,321,322,0,0,0,0,0,0,0,0,0,0,0,0,0,0,0,0,0,0,0,0,0,0,0,0,0,
321,321,321,321,322,0,0,0,0,0,0,0,0,0,0,0,0,0,0,0,0,0,0,0,0,0,0,0,0,0,
321,321,321,321,322,0,0,0,0,0,0,0,0,0,0,0,0,0,0,0,0,0,0,0,0,0,0,0,0,0,
321,321,321,321,322,0,0,0,0,0,0,0,0,0,0,0,0,0,0,0,0,0,0,0,0,0,0,0,0,0,
321,321,321,321,322,0,0,0,0,0,0,0,0,0,0,0,0,0,0,0,0,0,0,0,0,0,0,0,0,0,
321,321,321,321,322,0,0,0,0,0,0,0,0,0,0,0,0,0,0,0,0,0,0,0,0,0,0,0,0,0,
321,321,321,321,322,0,0,0,0,0,0,0,0,0,0,0,0,0,0,0,0,0,0,0,0,0,0,0,0,0,
321,321,321,321,322,0,0,0,0,0,0,0,0,0,0,0,0,0,0,0,0,0,0,0,0,0,0,0,0,0,
321,321,321,321,322,0,0,0,0,0,0,0,0,0,0,0,0,0,0,0,0,0,0,0,0,0,0,0,0,0,
321,321,321,321,322,0,0,0,0,0,0,0,0,0,0,0,0,0,0,0,0,0,0,0,0,0,0,0,0,0,
321,321,321,321,322,0,0,0,0,0,0,0,0,0,0,0,0,0,0,0,0,0,0,0,0,0,0,0,0,0,
321,321,321,321,322,0,0,0,0,0,0,0,0,0,0,0,0,0,0,0,0,0,0,0,0,0,0,0,0,0,
321,321,321,321,322,0,0,0,0,0,0,0,0,0,0,0,0,0,0,0,0,0,0,0,0,0,0,0,0,0,
321,321,321,321,322,0,0,0,0,0,0,0,0,0,0,0,0,0,0,0,0,0,0,0,0,0,0,0,0,0,
321,321,321,321,322,0,0,0,0,0,0,0,0,0,0,0,0,0,0,0,0,0,0,0,0,0,0,0,0,0,
321,321,321,321,322,0,0,0,0,0,0,0,0,0,0,0,0,0,0,0,0,0,0,0,0,0,0,0,0,0,
321,321,321,321,322,0,0,0,0,0,0,0,0,0,0,0,0,0,0,0,0,0,0,0,0,0,0,0,0,0,
321,321,321,321,322,0,0,0,0,0,0,0,0,0,0,0,0,0,0,0,0,0,0,0,0,0,0,0,0,0,
321,321,321,321,322,0,0,0,0,0,0,0,0,0,0,0,0,0,0,0,0,0,0,0,0,0,0,0,0,0,
321,321,321,321,322,0,0,0,0,0,0,0,0,0,0,0,0,0,0,0,0,0,0,0,0,0,0,0,0,0,
321,321,321,321,322,0,0,0,0,0,0,0,0,0,0,0,0,0,0,0,0,0,0,0,0,0,0,0,0,0,
321,321,321,321,322,0,0,0,0,0,0,0,0,0,0,0,0,0,0,0,0,0,0,0,0,0,0,0,0,0,
321,321,321,321,322,0,0,0,0,0,0,0,0,0,0,0,0,0,0,0,0,0,0,0,0,0,0,0,0,0,
321,321,321,321,322,0,0,0,0,0,0,0,0,0,0,0,0,0,0,0,0,0,0,0,0,0,0,0,0,0,
321,321,321,321,322,0,0,0,0,0,0,0,0,0,0,0,0,0,0,0,0,0,0,0,0,0,0,0,0,0,
321,321,321,321,322,0,0,0,0,0,0,0,0,0,0,0,0,0,0,0,0,0,0,0,0,0,0,0,0,0
</data>
 </layer>
</map>
