<?xml version="1.0" encoding="UTF-8"?>
<map version="1.10" tiledversion="1.11.2" orientation="orthogonal" renderorder="right-down" width="34" height="17" tilewidth="40" tileheight="40" infinite="0" nextlayerid="11" nextobjectid="20">
 <editorsettings>
  <export target="recep1.lua" format="lua"/>
 </editorsettings>
 <tileset firstgid="1" name="Receptionist" tilewidth="16" tileheight="16" tilecount="361" columns="19" tilerendersize="grid">
  <image source="../../../assets/sprites/tilesets/Receptionist.png" width="318" height="308"/>
 </tileset>
 <tileset firstgid="362" source="../tilesets/Receptionist.tsx"/>
 <imagelayer id="10" name="Image Layer 1" tintcolor="#646578" offsetx="-23" offsety="533" parallaxx="0.3" parallaxy="0.3" repeatx="1" repeaty="1">
  <image source="../../../assets/sprites/tilesets/indoors recep bg_1.png" width="972" height="848"/>
 </imagelayer>
 <layer id="3" name="Tile Layer 3" width="34" height="17" tintcolor="#afafd1">
  <data encoding="csv">
0,0,0,0,0,0,0,0,0,0,0,0,0,0,0,0,0,0,0,0,0,0,0,0,0,0,0,0,0,0,0,0,0,0,
0,0,0,0,0,0,263,264,264,264,264,264,264,264,264,264,265,0,0,0,0,0,0,0,0,0,0,0,0,0,0,0,0,0,
0,0,0,0,0,0,282,283,283,283,283,283,283,283,283,283,284,0,0,0,0,0,0,0,0,0,0,0,0,0,0,0,0,0,
0,0,0,0,0,0,301,302,302,302,302,302,302,302,282,283,284,0,0,0,0,0,0,0,0,0,0,0,0,0,0,0,0,0,
0,0,0,0,0,0,320,317,321,317,321,317,321,321,282,283,284,0,0,0,0,0,0,0,0,0,0,0,0,0,0,0,0,0,
0,0,0,0,0,0,320,321,321,321,321,321,321,321,278,279,280,0,0,0,0,0,0,0,0,0,0,0,0,0,0,0,0,0,
0,0,0,0,0,0,320,321,317,321,317,321,317,321,278,279,280,0,0,0,0,0,0,0,0,0,0,0,0,0,0,0,0,0,
0,0,0,0,0,263,225,340,340,340,340,340,340,340,278,279,280,0,0,0,0,0,0,0,0,0,0,0,0,0,0,0,0,0,
0,0,0,0,0,282,283,283,283,283,283,283,283,283,283,283,283,264,264,264,264,264,264,264,264,264,264,264,264,264,264,264,264,264,
0,0,0,0,0,282,283,283,283,283,283,283,283,283,283,283,283,283,283,283,283,283,283,283,283,283,283,283,283,283,283,283,283,283,
0,0,0,0,0,282,283,284,302,302,302,302,302,302,302,302,302,302,302,302,302,302,302,302,302,302,302,302,302,302,302,302,302,302,
0,0,0,0,0,282,283,284,321,317,321,321,321,321,317,321,321,321,321,317,321,321,321,321,321,321,321,321,321,321,321,321,321,321,
0,0,0,0,0,282,283,284,321,321,321,321,321,321,321,321,321,321,321,321,321,321,321,321,321,321,321,321,321,321,321,321,321,321,
0,0,0,0,0,282,283,284,321,317,321,321,321,321,317,321,321,321,321,317,321,321,321,321,321,321,321,321,321,321,321,321,321,321,
0,0,0,0,0,282,283,284,321,321,321,321,321,321,321,321,321,321,321,321,321,321,321,321,321,321,321,321,321,321,321,321,321,321,
0,0,0,0,0,282,283,284,321,317,321,321,321,321,317,321,321,321,321,317,321,321,321,321,321,321,321,321,321,321,321,321,321,321,
0,0,0,0,0,643,644,645,0,0,0,0,0,0,0,0,0,0,0,0,0,0,0,0,0,0,0,0,0,0,0,0,0,0
</data>
 </layer>
 <objectgroup color="#ff00ff" id="4" name="objects">
  <properties>
   <property name="text1" value="* With a new darkworld appearing out of seemingly no where..."/>
   <property name="text2" value="* The power of mystery shines within you"/>
  </properties>
  <object id="1" name="savepoint" x="298" y="79">
   <point/>
  </object>
  <object id="2" name="transition" x="1306.52" y="317.911" width="82.8111" height="82.8111">
   <properties>
    <property name="map" value="recep2"/>
    <property name="marker" value="entranceA"/>
   </properties>
  </object>
  <object id="17" name="transition" x="197.572" y="682.75" width="124.217" height="41.4056">
   <properties>
    <property name="map" value="krisspawn"/>
    <property name="marker" value="entranceA"/>
   </properties>
  </object>
 </objectgroup>
 <objectgroup color="#aa00ff" id="6" name="markers" tintcolor="#afafd1">
  <object id="3" name="entranceA" x="255.978" y="583.75">
   <point/>
  </object>
  <object id="16" name="entrance2" x="1149.09" y="375.317">
   <point/>
  </object>
  <object id="18" name="spawn" x="377" y="92">
   <point/>
  </object>
 </objectgroup>
 <objectgroup color="#0055ff" id="7" name="collision">
  <object id="4" x="203.239" y="239.1" width="41.4056" height="41.4056"/>
  <object id="5" x="161.833" y="239.1" width="41.4056" height="414.056"/>
  <object id="6" x="312.789" y="400.722" width="41.4056" height="248.433"/>
  <object id="7" x="354.194" y="400.722" width="1035.14" height="41.4056"/>
  <object id="8" x="672.772" y="281.839" width="697.894" height="37.4056"/>
  <object id="9" x="673.439" y="33.4056" width="41.4056" height="248.433"/>
  <object id="10" x="519.817" y="120.883" width="41.4056" height="197.028"/>
  <object id="11" x="239.311" y="276.506" width="280.506" height="41.4056"/>
  <object id="12" x="230.645" y="118.217" width="289.839" height="41.4056"/>
  <object id="13" x="201.239" y="38.7389" width="41.4056" height="82.8111"/>
  <object id="14" x="220.645" y="-3.33337" width="455.461" height="41.4056"/>
 </objectgroup>
 <layer id="5" name="Tile Layer 2" width="34" height="17" tintcolor="#797ea3" offsetx="250" offsety="0" parallaxx="1.3">
  <data encoding="csv">
0,0,0,0,0,0,0,0,0,0,0,0,0,0,0,0,0,0,0,0,0,0,0,0,0,0,0,0,320,321,321,321,321,321,
0,0,0,0,0,0,0,0,0,0,0,0,0,0,0,0,0,0,0,0,0,0,0,0,0,0,0,0,320,321,321,321,321,321,
0,0,0,0,0,0,0,0,0,0,0,0,0,0,0,0,0,0,0,0,0,0,0,0,0,0,0,0,320,321,321,321,321,321,
0,0,0,0,0,0,0,0,0,0,0,0,0,0,0,0,0,0,0,0,0,0,0,0,0,0,0,0,320,321,321,321,321,321,
0,0,0,0,0,0,0,0,0,0,0,0,0,0,0,0,0,0,0,0,0,0,0,0,0,0,0,0,320,321,321,321,321,321,
0,0,0,0,0,0,0,0,0,0,0,0,0,0,0,0,0,0,0,0,0,0,0,0,0,0,0,0,320,321,321,321,321,321,
0,0,0,0,0,0,0,0,0,0,0,0,0,0,0,0,0,0,0,0,0,0,0,0,0,0,0,0,320,321,321,321,321,321,
0,0,0,0,0,0,0,0,0,0,0,0,0,0,0,0,0,0,0,0,0,0,0,0,0,0,0,0,320,321,321,321,321,321,
0,0,0,0,0,0,0,0,0,0,0,0,0,0,0,0,0,0,0,0,0,0,0,0,0,0,0,0,320,321,321,321,321,321,
0,0,0,0,0,0,0,0,0,0,0,0,0,0,0,0,0,0,0,0,0,0,0,0,0,0,0,0,320,321,321,321,321,321,
0,0,0,0,0,0,0,0,0,0,0,0,0,0,0,0,0,0,0,0,0,0,0,0,0,0,0,0,320,321,321,321,321,321,
0,0,0,0,0,0,0,0,0,0,0,0,0,0,0,0,0,0,0,0,0,0,0,0,0,0,0,0,320,321,321,321,321,321,
0,0,0,0,0,0,0,0,0,0,0,0,0,0,0,0,0,0,0,0,0,0,0,0,0,0,0,0,320,321,321,321,321,321,
0,0,0,0,0,0,0,0,0,0,0,0,0,0,0,0,0,0,0,0,0,0,0,0,0,0,0,0,320,321,321,321,321,321,
0,0,0,0,0,0,0,0,0,0,0,0,0,0,0,0,0,0,0,0,0,0,0,0,0,0,0,0,320,321,321,321,321,321,
0,0,0,0,0,0,0,0,0,0,0,0,0,0,0,0,0,0,0,0,0,0,0,0,0,0,0,0,320,321,321,321,321,321,
0,0,0,0,0,0,0,0,0,0,0,0,0,0,0,0,0,0,0,0,0,0,0,0,0,0,0,0,0,0,0,0,0,0
</data>
 </layer>
</map>
