<?xml version="1.0" encoding="UTF-8"?>
<map version="1.10" tiledversion="1.12.2" orientation="orthogonal" renderorder="right-down" width="20" height="15" tilewidth="40" tileheight="40" infinite="0" nextlayerid="8" nextobjectid="20">
 <editorsettings>
  <export target="recep2a.lua" format="lua"/>
 </editorsettings>
 <properties>
  <property name="music" value="hallway"/>
 </properties>
 <tileset firstgid="1" source="../tilesets/Receptionist.tsx"/>
 <imagelayer id="2" name="bg" tintcolor="#646578" offsetx="-68" offsety="-82">
  <image source="../../../assets/sprites/tilesets/indoors recep bg_1.png" width="972" height="848"/>
 </imagelayer>
 <layer id="1" name="Tile Layer 1" width="20" height="15" tintcolor="#afafd1">
  <data encoding="csv">
0,0,0,0,0,0,320,321,317,321,321,321,317,321,322,0,0,0,0,0,
0,0,0,0,0,0,320,321,321,321,321,321,321,321,322,0,0,0,0,0,
0,0,0,0,0,0,320,321,317,321,321,321,317,321,322,0,0,0,0,0,
0,0,0,0,0,0,320,321,321,321,321,321,321,321,322,0,0,0,0,0,
0,0,0,0,0,0,320,321,317,321,321,321,317,321,322,0,0,0,0,0,
0,0,0,0,0,0,320,321,321,321,321,321,321,321,322,0,0,0,0,0,
0,0,0,0,0,0,320,321,321,321,321,321,321,321,322,0,0,0,0,0,
0,0,0,0,0,263,264,264,264,264,264,264,264,264,264,265,0,0,0,0,
0,0,0,0,0,282,283,283,283,283,283,283,283,283,283,284,0,0,0,0,
0,0,0,0,0,282,283,283,283,283,283,283,283,283,283,284,0,0,0,0,
0,0,0,0,0,282,283,283,283,283,283,283,283,283,283,284,0,0,0,0,
0,0,0,0,0,301,302,302,282,283,283,283,284,302,302,303,0,0,0,0,
0,0,0,0,0,339,340,340,282,283,283,283,284,340,340,341,0,0,0,0,
0,0,0,0,0,0,0,0,282,283,283,283,284,0,0,0,0,0,0,0,
0,0,0,0,0,0,0,0,282,283,283,283,284,0,0,0,0,0,0,0
</data>
 </layer>
 <layer id="6" name="chest" width="20" height="15" tintcolor="#afafd1">
  <properties>
   <property name="flag" value=""/>
  </properties>
  <data encoding="csv">
0,0,0,0,0,0,0,0,0,0,0,0,0,0,0,0,0,0,0,0,
0,0,0,0,0,0,0,0,0,0,0,0,0,0,0,0,0,0,0,0,
0,0,0,0,0,0,0,0,0,0,0,0,0,0,0,0,0,0,0,0,
0,0,0,0,0,0,0,0,0,0,0,0,0,0,0,0,0,0,0,0,
0,0,0,0,0,0,0,0,0,0,0,0,0,0,0,0,0,0,0,0,
0,0,0,0,0,0,0,0,0,0,0,0,0,0,0,0,0,0,0,0,
0,0,0,0,0,0,0,0,0,0,0,0,0,0,0,0,0,0,0,0,
0,0,0,0,0,0,0,0,0,0,0,0,0,0,0,0,0,0,0,0,
0,0,0,0,0,0,0,0,0,0,0,0,0,0,0,283,264,264,264,265,
0,0,0,0,0,0,0,0,0,0,0,0,0,0,0,283,283,283,283,284,
0,0,0,0,0,0,0,0,0,0,0,0,0,0,0,0,302,302,302,303,
0,0,0,0,0,0,0,0,0,0,0,0,0,0,0,0,340,340,340,341,
0,0,0,0,0,0,0,0,0,0,0,0,0,0,0,0,0,0,0,0,
0,0,0,0,0,0,0,0,0,0,0,0,0,0,0,0,0,0,0,0,
0,0,0,0,0,0,0,0,0,0,0,0,0,0,0,0,0,0,0,0
</data>
 </layer>
 <objectgroup color="#0000ff" id="3" name="collision">
  <object id="1" x="200" y="240" width="440" height="40"/>
  <object id="2" x="640" y="280" width="40" height="160">
   <properties>
    <property name="flag" value=""/>
   </properties>
  </object>
  <object id="3" x="520" y="440" width="120" height="40"/>
  <object id="4" x="520" y="480" width="40" height="120"/>
  <object id="5" x="280" y="440" width="40" height="160"/>
  <object id="6" x="200" y="440" width="80" height="40"/>
  <object id="7" x="160" y="280" width="40" height="160"/>
  <object id="15" x="640" y="280" width="160" height="40"/>
  <object id="16" x="800" y="320" width="40" height="80"/>
  <object id="17" x="640" y="400" width="160" height="40"/>
 </objectgroup>
 <objectgroup color="#ff55ff" id="4" name="objects">
  <object id="9" name="transition" x="320" y="560" width="200" height="40">
   <properties>
    <property name="map" value="recep2"/>
    <property name="marker" value="entranceB"/>
   </properties>
  </object>
  <object id="10" name="chest" x="761" y="364">
   <properties>
    <property name="flag" value=""/>
    <property name="item" value="revivemint"/>
   </properties>
   <point/>
  </object>
  <object id="18" name="heart_puzzle" x="421" y="159">
   <point/>
  </object>
 </objectgroup>
 <objectgroup color="#aa55ff" id="5" name="markers">
  <object id="8" name="entranceA" x="415" y="511">
   <point/>
  </object>
 </objectgroup>
</map>
