<?xml version="1.0" encoding="UTF-8"?>
<map version="1.10" tiledversion="1.12.2" orientation="orthogonal" renderorder="right-down" width="50" height="50" tilewidth="40" tileheight="40" infinite="0" backgroundcolor="#13132b" nextlayerid="10" nextobjectid="135">
 <editorsettings>
  <export target="recep3.lua" format="lua"/>
 </editorsettings>
 <properties>
  <property name="music" value="hallway"/>
 </properties>
 <tileset firstgid="1" source="../tilesets/Receptionist.tsx"/>
 <objectgroup color="#55aa00" id="6" name="battleareas">
  <object id="60" x="760" y="725" width="741" height="67"/>
 </objectgroup>
 <imagelayer id="7" name="Image Layer 1" parallaxx="0.05" parallaxy="0.05" repeatx="1">
  <image source="../../../assets/sprites/tilesets/receptionist bg.png" width="640" height="480"/>
  <properties>
   <property name="music" value="hallway"/>
  </properties>
 </imagelayer>
 <layer id="2" name="Tile Layer 2" width="50" height="50">
  <data encoding="csv">
0,0,0,0,0,0,0,0,0,0,0,0,0,0,0,0,0,0,0,0,0,0,0,0,0,263,264,264,264,264,265,0,0,0,0,0,0,0,0,0,0,0,0,0,0,0,0,0,0,0,
0,0,0,0,0,0,0,0,0,0,0,0,0,0,0,0,0,0,0,0,0,0,0,0,0,282,283,283,283,283,284,0,0,0,0,0,0,0,0,0,0,0,0,0,0,0,0,0,0,0,
0,0,0,0,0,0,0,0,0,0,0,0,0,0,0,0,0,0,0,0,0,0,0,0,0,301,302,302,302,302,303,0,0,0,0,0,0,0,0,0,0,0,0,0,0,0,0,0,0,0,
0,0,0,0,0,0,0,0,0,0,0,0,0,0,0,0,0,0,0,0,0,0,0,0,0,320,321,321,321,321,322,0,0,0,0,0,0,0,0,0,0,0,0,0,0,0,0,0,0,0,
0,0,0,0,0,0,0,0,0,0,0,0,0,0,0,0,0,0,0,0,0,0,0,0,0,320,321,321,321,321,322,0,0,0,0,0,0,0,0,0,0,0,0,0,0,0,0,0,0,0,
0,0,0,0,0,0,0,0,0,0,0,0,0,0,0,0,0,0,0,0,0,0,0,0,0,320,321,321,321,321,322,0,0,0,0,0,0,0,0,0,0,0,0,0,0,0,0,0,0,0,
0,0,0,0,0,0,0,0,0,0,0,0,0,0,0,0,0,0,0,0,0,0,0,0,0,320,321,321,321,321,322,0,0,0,0,0,0,0,0,0,0,0,0,0,0,0,0,0,0,0,
0,0,0,0,0,0,0,0,0,0,0,0,0,0,0,0,0,0,0,0,0,0,0,0,263,225,340,340,340,340,227,265,0,0,0,0,0,0,0,0,0,0,0,0,0,0,0,0,0,0,
0,0,0,0,0,0,0,0,0,0,0,0,0,0,0,0,0,0,0,0,0,0,0,0,282,283,283,283,283,283,283,284,0,0,0,0,0,0,0,0,0,0,0,0,0,0,0,0,0,0,
0,0,0,0,0,0,0,0,0,0,0,0,0,0,0,0,0,0,0,0,0,0,0,0,282,283,283,283,283,283,283,284,0,0,0,0,0,0,0,0,0,0,0,0,0,0,0,0,0,0,
0,0,0,0,0,0,0,0,0,0,0,0,0,0,0,0,0,0,0,0,0,0,0,0,301,302,302,65,67,302,302,303,0,0,0,0,0,0,0,0,0,0,0,0,0,0,0,0,0,0,
0,0,0,0,0,0,0,0,0,0,0,0,0,0,0,0,0,0,0,0,0,0,0,0,339,340,340,65,86,340,340,341,0,0,0,0,0,0,0,0,0,0,0,0,0,0,0,0,0,0,
0,0,0,0,0,0,0,0,0,0,0,0,0,0,0,0,0,0,0,0,0,0,0,0,0,0,0,65,105,0,0,0,0,0,0,0,0,0,0,0,0,0,0,0,0,0,0,0,0,0,
0,0,0,0,0,0,0,0,0,0,0,0,0,0,0,0,0,0,0,0,0,0,0,0,0,0,0,65,105,0,0,0,0,0,0,0,0,0,0,0,0,0,0,0,0,0,0,0,0,0,
0,0,0,0,0,0,0,0,0,0,0,0,0,0,0,0,0,0,0,0,0,0,0,0,0,0,0,65,105,0,0,0,0,0,0,0,0,0,0,0,0,0,0,0,0,0,0,0,0,0,
0,0,0,0,0,0,0,0,0,0,0,0,0,0,0,0,0,0,0,0,0,0,0,0,0,0,0,65,105,0,0,0,0,0,0,0,0,0,0,0,0,0,0,0,0,0,0,0,0,0,
0,0,0,0,0,0,0,0,0,0,0,0,0,0,0,0,0,0,0,0,0,0,0,0,0,0,0,65,105,0,0,0,0,0,0,0,0,0,0,0,0,0,0,0,0,0,0,0,0,0,
0,0,0,0,0,0,0,0,0,0,0,0,0,0,0,0,0,0,0,0,0,0,0,0,0,0,0,65,105,0,0,0,0,0,0,0,0,0,0,0,0,0,0,0,0,0,0,0,0,0,
0,0,0,0,0,0,0,0,0,0,0,0,0,0,0,0,0,0,0,0,0,0,0,0,0,0,0,84,105,0,0,0,0,0,0,0,0,0,0,0,0,0,0,0,0,0,0,0,0,0,
0,0,0,0,0,0,0,0,0,0,0,0,0,0,0,0,0,0,0,0,0,0,0,0,0,0,0,103,105,0,0,0,0,0,0,0,0,0,0,0,0,0,0,0,0,0,0,0,0,0,
0,0,0,0,0,0,0,0,0,0,0,0,0,0,0,0,0,0,0,0,0,0,0,0,0,0,0,0,0,0,0,0,0,0,0,0,0,0,0,0,0,0,0,0,0,0,0,0,0,0,
0,0,0,0,0,0,0,0,0,0,0,0,0,0,0,0,0,0,0,0,0,0,0,0,0,0,0,0,0,0,0,0,0,0,0,0,0,0,0,0,0,0,0,0,0,0,0,0,0,0,
0,0,0,0,0,0,0,0,0,0,0,0,0,0,0,0,0,0,0,0,0,0,0,0,0,0,0,0,0,0,0,0,0,0,0,0,0,0,0,0,0,0,0,0,0,0,0,0,0,0,
0,0,0,0,0,0,0,0,0,0,0,0,0,0,0,0,0,0,0,0,0,0,0,0,0,0,0,0,0,0,0,0,0,0,0,0,0,0,0,0,0,0,0,0,0,0,0,0,0,0,
0,0,0,0,0,0,0,0,0,0,0,0,0,0,0,0,0,0,0,0,0,0,0,0,0,0,0,0,0,0,0,0,0,0,0,0,0,0,0,0,0,0,0,0,0,0,0,0,0,0,
0,0,0,0,0,0,0,0,0,0,0,0,0,0,0,0,0,0,0,0,0,0,0,0,0,0,0,0,0,0,0,0,0,0,0,0,0,0,0,0,0,0,0,0,0,0,0,0,0,0,
0,0,0,0,0,0,0,0,0,0,0,0,0,0,0,0,0,0,0,0,0,0,0,0,0,0,0,0,0,0,0,0,0,0,0,0,0,0,0,0,0,0,0,0,0,0,0,0,0,0,
0,0,0,0,0,0,0,0,0,0,0,0,0,0,0,0,0,0,0,0,0,0,0,0,0,0,0,0,0,0,0,0,0,0,0,0,0,0,0,0,0,0,0,0,0,0,0,0,0,0,
0,0,0,0,0,0,0,0,0,0,0,0,0,0,0,0,0,0,0,0,0,0,0,0,0,0,0,0,0,0,0,0,0,0,0,0,0,0,0,0,0,0,0,0,0,0,0,0,0,0,
0,0,0,0,0,0,0,0,0,0,0,0,0,0,0,0,0,0,0,0,0,0,0,0,0,0,0,0,0,0,0,0,0,0,0,0,0,0,0,0,0,0,0,0,0,0,0,0,0,0,
263,264,264,264,264,264,264,265,0,0,0,0,0,0,0,0,0,0,0,0,0,0,0,0,0,0,0,0,0,0,0,0,0,0,0,0,0,0,0,0,0,0,0,0,0,0,0,0,0,0,
282,283,283,283,283,283,283,284,0,0,0,0,0,0,0,0,0,0,0,0,0,0,0,0,0,0,0,0,0,0,0,0,0,0,0,0,0,0,0,0,0,0,0,0,0,0,0,0,0,0,
282,283,283,283,283,283,283,283,62,63,64,64,64,64,64,64,64,64,64,64,64,64,64,64,64,64,0,0,0,0,0,0,0,0,0,0,0,0,0,0,0,0,0,0,0,0,0,0,0,0,
282,283,283,283,283,283,283,283,81,82,83,83,83,83,83,83,83,83,83,83,83,83,83,83,83,83,0,0,0,0,0,0,0,0,0,0,0,0,0,0,0,0,0,0,0,0,0,0,0,0,
282,283,283,283,283,283,283,284,0,0,0,0,0,0,0,0,0,0,0,0,0,0,0,0,0,0,0,0,0,0,0,0,0,0,0,0,0,0,0,0,0,0,0,0,0,0,0,0,0,0,
301,302,282,283,284,302,302,303,0,0,0,0,0,0,0,0,0,0,0,0,0,0,0,0,0,0,0,0,0,0,0,0,0,0,0,0,0,0,0,0,0,0,0,0,0,0,0,0,0,0,
321,321,282,283,284,321,321,322,0,0,0,0,0,0,0,0,0,0,0,0,0,0,0,0,0,0,0,0,0,0,0,0,0,0,0,0,0,0,0,0,0,0,0,0,0,0,0,0,0,0,
320,321,282,283,284,321,321,322,0,0,0,0,0,0,0,0,0,0,0,0,0,0,0,0,0,0,0,0,0,0,0,0,0,0,0,0,0,0,0,0,0,0,0,0,0,0,0,0,0,0,
320,321,282,283,284,321,321,322,0,0,0,0,0,0,0,0,0,0,0,0,0,0,0,0,0,0,0,0,0,0,0,0,0,0,0,0,0,0,0,0,0,0,0,0,0,0,0,0,0,0,
339,340,282,283,284,340,340,341,0,0,0,0,0,0,0,0,0,0,0,0,0,0,0,0,0,0,0,0,0,0,0,0,0,0,0,0,0,0,0,0,0,0,0,0,0,0,0,0,0,0,
0,0,282,283,284,0,0,0,0,0,0,0,0,0,0,0,0,0,0,0,0,0,0,0,0,0,0,0,0,0,0,0,0,0,0,0,0,0,0,0,0,0,0,0,0,0,0,0,0,0,
0,0,282,283,284,0,0,0,0,0,0,0,0,0,0,0,0,0,0,0,0,0,0,0,0,0,0,0,0,0,0,0,0,0,0,0,0,0,0,0,0,0,0,0,0,0,0,0,0,0,
0,0,282,283,284,0,0,0,0,0,0,0,0,0,0,0,0,0,0,0,0,0,0,0,0,0,0,0,0,0,0,0,0,0,0,0,0,0,0,0,0,0,0,0,0,0,0,0,0,0,
0,0,282,283,284,0,0,0,0,0,0,0,0,0,0,0,0,0,0,0,0,0,0,0,0,0,0,0,0,0,0,0,0,0,0,0,0,0,0,0,0,0,0,0,0,0,0,0,0,0,
0,0,282,283,284,0,0,0,0,0,0,0,0,0,0,0,0,0,0,0,0,0,0,0,0,0,0,0,0,0,0,0,0,0,0,0,0,0,0,0,0,0,0,0,0,0,0,0,0,0,
0,0,282,283,284,0,0,0,0,0,0,0,0,0,0,0,0,0,0,0,0,0,0,0,0,0,0,0,0,0,0,0,0,0,0,0,0,0,0,0,0,0,0,0,0,0,0,0,0,0,
0,0,282,283,284,0,0,0,0,0,0,0,0,0,0,0,0,0,0,0,0,0,0,0,0,0,0,0,0,0,0,0,0,0,0,0,0,0,0,0,0,0,0,0,0,0,0,0,0,0,
0,0,282,283,284,0,0,0,0,0,0,0,0,0,0,0,0,0,0,0,0,0,0,0,0,0,0,0,0,0,0,0,0,0,0,0,0,0,0,0,0,0,0,0,0,0,0,0,0,0,
0,0,282,283,284,0,0,0,0,0,0,0,0,0,0,0,0,0,0,0,0,0,0,0,0,0,0,0,0,0,0,0,0,0,0,0,0,0,0,0,0,0,0,0,0,0,0,0,0,0,
0,0,282,283,284,0,0,0,0,0,0,0,0,0,0,0,0,0,0,0,0,0,0,0,0,0,0,0,0,0,0,0,0,0,0,0,0,0,0,0,0,0,0,0,0,0,0,0,0,0
</data>
 </layer>
 <objectgroup id="8" name="paths"/>
 <layer id="1" name="Tile Layer 1" width="50" height="50">
  <data encoding="csv">
0,0,0,0,0,0,0,0,0,0,0,0,0,0,0,0,0,0,0,0,0,0,0,0,0,0,0,0,0,0,0,0,0,0,0,0,0,0,0,0,0,0,0,0,0,0,0,0,0,0,
0,0,0,0,0,0,0,0,0,0,0,0,0,0,0,0,0,0,0,0,0,0,0,0,0,0,0,0,0,0,0,0,0,0,0,0,0,0,0,0,0,0,0,0,0,0,0,0,0,0,
0,0,0,0,0,0,0,0,0,0,0,0,0,0,0,0,0,0,0,0,0,0,0,0,0,0,0,0,0,0,0,0,0,0,0,0,0,0,0,0,0,0,0,0,0,0,0,0,0,0,
0,0,0,0,0,0,0,0,0,0,0,0,0,0,0,0,0,0,0,0,0,0,0,0,0,316,0,0,0,0,318,0,0,0,0,0,0,0,0,0,0,0,0,0,0,0,0,0,0,0,
0,0,0,0,0,0,0,0,0,0,0,0,0,0,0,0,0,0,0,0,0,0,0,0,0,316,0,0,0,0,318,0,0,0,0,0,0,0,0,0,0,0,0,0,0,0,0,0,0,0,
0,0,0,0,0,0,0,0,0,0,0,0,0,0,0,0,0,0,0,0,0,0,0,0,0,316,0,0,0,0,318,0,0,0,0,0,0,0,0,0,0,0,0,0,0,0,0,0,0,0,
0,0,0,0,0,0,0,0,0,0,0,0,0,0,0,0,0,0,0,0,0,0,0,0,0,0,0,0,0,0,0,0,0,0,0,0,0,0,0,0,0,0,0,0,0,0,0,0,0,0,
0,0,0,0,0,0,0,0,0,0,0,0,0,0,0,0,0,0,0,0,0,0,0,0,0,0,0,0,0,0,0,0,0,0,0,0,0,0,0,0,0,0,0,0,0,0,0,0,0,0,
264,264,264,264,264,264,264,264,264,264,264,264,264,265,0,0,0,0,0,0,0,0,0,0,0,0,0,0,0,0,0,0,0,0,0,0,0,0,0,0,0,0,0,0,0,0,0,0,0,0,
302,302,302,302,302,302,302,302,302,302,65,66,67,303,0,0,0,0,0,0,0,0,0,0,0,0,0,0,0,0,0,0,0,0,0,0,0,0,0,0,0,0,0,0,0,0,0,0,0,0,
336,340,340,340,336,340,340,340,336,340,65,66,67,341,0,0,0,0,0,0,0,0,0,0,0,0,0,0,0,0,0,0,0,0,0,0,0,0,0,0,0,0,0,0,0,0,0,0,0,0,
0,0,0,0,0,0,0,0,0,0,65,66,67,0,0,0,0,0,0,0,0,0,0,0,0,336,336,0,0,336,336,0,0,0,0,0,0,0,0,263,264,264,264,265,0,0,0,0,0,0,
0,0,0,0,0,0,0,0,0,0,65,66,67,0,0,0,0,0,0,0,0,0,0,0,0,0,0,0,0,0,0,0,0,0,0,0,0,0,0,301,302,302,302,303,0,0,0,0,0,0,
0,0,0,0,0,0,0,0,0,0,65,66,67,0,0,0,0,0,0,0,0,0,0,0,0,0,0,0,0,0,0,0,0,0,0,0,0,0,0,320,321,321,321,322,0,0,0,0,0,0,
0,0,0,0,0,0,0,0,0,0,84,85,86,0,0,0,0,0,0,0,0,0,0,0,0,0,0,0,0,0,0,0,0,0,0,0,0,0,0,320,255,256,257,322,0,0,0,0,0,0,
0,0,0,0,0,0,0,0,0,0,103,104,105,0,0,0,0,0,0,0,0,0,0,0,0,0,0,0,0,0,0,0,0,0,0,0,0,0,259,320,274,275,276,322,261,0,0,0,0,0,
0,0,0,0,0,0,0,263,264,264,283,283,283,264,264,264,264,264,265,0,0,0,0,0,0,0,0,0,0,0,0,0,0,0,0,0,0,0,278,225,293,294,295,227,280,0,0,0,0,0,
0,0,0,0,0,0,0,282,283,283,283,283,283,283,283,283,283,283,284,0,0,0,0,0,0,0,0,0,0,0,0,0,0,0,0,0,0,0,278,279,279,279,279,279,280,0,0,0,0,0,
0,0,0,0,0,0,0,282,283,283,283,283,283,283,283,283,283,283,284,62,63,64,64,64,64,64,64,64,64,64,64,64,64,64,64,64,64,64,278,279,279,279,279,279,280,0,0,0,0,0,
0,0,0,0,0,0,0,282,283,283,283,283,283,283,283,283,283,283,284,81,82,83,83,83,83,83,83,83,83,83,83,83,83,83,83,83,83,83,278,279,279,279,279,279,280,0,0,0,0,0,
0,0,0,0,0,0,0,282,283,283,283,283,283,283,283,283,283,283,284,0,0,0,0,0,0,0,0,65,67,0,0,0,0,0,0,0,0,0,297,302,302,302,302,302,299,0,0,0,0,0,
0,0,0,0,0,0,0,282,283,283,283,283,283,283,283,283,283,283,284,0,0,0,0,0,0,0,0,84,86,0,0,0,0,0,0,0,0,0,320,321,321,321,321,321,322,0,0,0,0,0,
0,0,0,0,0,0,0,301,302,302,302,302,302,302,302,302,302,302,303,0,0,0,0,0,0,0,0,103,105,0,0,0,0,0,0,0,0,0,320,321,317,321,317,321,322,0,0,0,0,0,
0,0,0,0,0,0,0,320,317,321,321,321,321,321,321,321,321,317,322,0,0,0,0,0,0,0,0,103,105,0,0,0,0,0,0,0,0,0,320,321,321,321,321,321,322,0,0,0,0,0,
0,0,0,0,0,0,0,320,321,321,321,317,317,317,317,321,321,321,322,0,0,0,0,0,0,0,0,103,105,0,0,0,0,0,0,0,0,0,320,317,321,317,321,317,322,0,0,0,0,0,
0,0,0,0,0,0,0,339,340,340,340,340,340,340,340,340,340,340,341,0,0,0,0,0,0,0,0,103,105,0,0,0,0,0,0,0,0,0,320,321,317,321,317,321,322,0,0,0,0,0,
0,0,0,0,0,0,0,0,0,0,0,0,0,0,0,0,0,0,0,0,0,0,0,0,0,0,0,103,105,0,0,0,0,0,0,0,0,0,320,321,321,321,321,321,322,0,0,0,0,0,
0,0,0,0,0,0,0,0,0,0,0,0,0,0,0,0,0,0,0,0,0,0,0,0,0,0,0,103,105,0,0,0,0,0,0,0,0,0,320,321,255,256,257,321,322,0,0,0,0,0,
0,0,0,0,0,0,0,0,0,0,0,0,0,0,0,0,0,0,0,0,0,0,0,0,0,0,0,103,105,0,0,0,0,0,0,0,0,0,320,321,274,275,276,321,322,0,0,0,0,0,
0,0,0,0,0,0,0,0,0,0,0,0,0,0,0,0,0,0,0,0,0,0,0,0,0,0,0,103,105,0,0,0,0,0,0,0,0,263,225,340,293,294,295,340,227,265,0,0,0,0,
0,0,0,0,0,0,0,0,0,0,0,0,0,0,0,0,0,0,0,0,0,0,0,0,0,0,0,103,105,0,0,0,0,0,0,0,0,282,283,283,283,283,283,283,283,284,0,0,0,0,
0,0,0,0,0,0,0,0,0,0,0,0,0,0,0,0,0,0,0,0,0,0,0,0,0,0,263,283,283,265,0,0,0,0,0,0,0,282,283,283,283,283,283,283,283,284,0,0,0,0,
0,0,0,0,0,0,0,0,0,0,0,0,0,0,0,0,0,0,0,0,0,0,0,0,0,0,282,283,283,284,62,63,64,64,64,64,64,282,283,283,283,283,283,283,283,284,0,0,0,0,
0,0,0,0,0,0,0,0,0,0,0,0,0,0,0,0,0,0,0,0,0,0,0,0,0,0,282,283,283,284,81,82,83,83,83,83,83,282,283,283,283,283,283,283,283,284,0,0,0,0,
0,0,0,0,0,0,0,0,0,0,0,0,0,0,0,0,0,0,0,0,0,0,0,0,0,0,282,283,283,284,0,0,0,0,0,0,0,282,283,283,283,283,283,283,283,284,0,0,0,0,
0,0,0,0,0,0,0,0,0,0,0,0,0,0,0,0,0,0,0,0,0,0,0,0,0,0,301,302,302,303,0,0,0,0,0,0,0,282,283,283,283,283,283,283,283,284,0,0,0,0,
0,0,0,0,0,0,0,0,0,0,0,0,0,0,0,0,0,0,0,0,0,0,0,0,0,0,320,321,321,322,0,0,0,0,0,0,0,301,302,302,302,302,302,302,302,303,0,0,0,0,
0,0,0,0,0,0,0,0,0,0,0,0,0,0,0,0,0,0,0,0,0,0,0,0,0,0,320,321,321,322,0,0,0,0,0,0,0,320,321,321,321,321,321,321,321,322,0,0,0,0,
0,0,0,0,0,0,0,0,0,0,0,0,0,0,0,0,0,0,0,0,0,0,0,0,0,0,320,321,321,322,0,0,0,0,0,0,0,320,321,321,321,321,321,321,321,322,0,0,0,0,
0,0,0,0,0,0,0,0,0,0,0,0,0,0,0,0,0,0,0,0,0,0,0,0,0,0,320,321,321,322,0,0,0,0,0,0,0,320,321,321,321,321,321,321,321,322,0,0,0,0,
0,0,0,0,0,0,0,0,0,0,0,0,0,0,0,0,0,0,0,0,0,0,0,0,0,0,320,321,321,322,0,0,0,0,0,0,0,320,321,321,321,321,321,321,321,322,0,0,0,0,
0,0,0,0,0,0,0,0,0,0,0,0,0,0,0,0,0,0,0,0,0,0,0,0,0,0,339,340,340,341,0,0,0,0,0,0,0,320,321,321,321,321,321,321,321,322,0,0,0,0,
0,0,0,0,0,0,0,0,0,0,0,0,0,0,0,0,0,0,0,0,0,0,0,0,0,0,0,0,0,0,0,0,0,0,0,0,0,320,321,321,321,321,321,321,321,322,0,0,0,0,
0,0,0,0,0,0,0,0,0,0,0,0,0,0,0,0,0,0,0,0,0,0,0,0,0,0,0,0,0,0,0,0,0,0,0,0,0,320,321,321,321,321,321,321,321,322,0,0,0,0,
0,0,0,0,0,0,0,0,0,0,0,0,0,0,0,0,0,0,0,0,0,0,0,0,0,0,0,0,0,0,0,0,0,0,0,0,0,320,321,321,321,321,321,321,321,322,0,0,0,0,
0,0,0,0,0,0,0,0,0,0,0,0,0,0,0,0,0,0,0,0,0,0,0,0,0,0,0,0,0,0,0,0,0,0,0,0,0,320,321,321,321,321,321,321,321,322,0,0,0,0,
0,0,0,0,0,0,0,0,0,0,0,0,0,0,0,0,0,0,0,0,0,0,0,0,0,0,0,0,0,0,0,0,0,0,0,0,0,320,321,321,321,321,321,321,321,322,0,0,0,0,
0,0,0,0,0,0,0,0,0,0,0,0,0,0,0,0,0,0,0,0,0,0,0,0,0,0,0,0,0,0,0,0,0,0,0,0,0,320,321,321,321,321,321,321,321,322,0,0,0,0,
0,0,0,0,0,0,0,0,0,0,0,0,0,0,0,0,0,0,0,0,0,0,0,0,0,0,0,0,0,0,0,0,0,0,0,0,0,320,321,321,321,321,321,321,321,322,0,0,0,0,
0,0,0,0,0,0,0,0,0,0,0,0,0,0,0,0,0,0,0,0,0,0,0,0,0,0,0,0,0,0,0,0,0,0,0,0,0,320,321,321,321,321,321,321,321,322,0,0,0,0
</data>
 </layer>
 <objectgroup color="#ff55ff" id="3" name="objects">
  <object id="1" name="chest" x="1120" y="361">
   <properties>
    <property name="item" value="venom_syringe"/>
   </properties>
   <point/>
  </object>
  <object id="38" name="interactable" x="1521" y="1200" width="118" height="40">
   <properties>
    <property name="text1">* (The wall looks huggable.)
* (You resist the urge to hug it.)</property>
   </properties>
  </object>
  <object id="39" name="interactable" x="1685" y="1199" width="105" height="40">
   <properties>
    <property name="text1">* (The wall looks huggable.)
* (You resist the urge to hug it.)</property>
   </properties>
  </object>
  <object id="41" name="transition" x="1640" y="640" width="40" height="40">
   <properties>
    <property name="map" value="recep3b"/>
    <property name="marker" value="entranceB"/>
   </properties>
  </object>
  <object id="42" name="transition" x="1640" y="1160" width="40" height="40">
   <properties>
    <property name="map" value="recep3a"/>
    <property name="marker" value="entranceC"/>
   </properties>
  </object>
  <object id="62" name="transition" x="0" y="320" width="40" height="40">
   <properties>
    <property name="map" value="recep2"/>
    <property name="marker" value="entranceB"/>
   </properties>
  </object>
  <object id="78" name="enemy" x="455.523" y="766.568" width="31.5" height="28.5">
   <properties>
    <property name="actor" value="dusteer"/>
    <property name="chase" type="bool" value="true"/>
    <property name="encounter" value="dusteer"/>
    <property name="enemy" value="dusteer"/>
   </properties>
  </object>
 </objectgroup>
 <objectgroup color="#aa00ff" id="4" name="markers">
  <object id="2" name="entranceA" x="101.333" y="346">
   <point/>
  </object>
  <object id="40" name="entranceB" x="1660" y="1253">
   <point/>
  </object>
  <object id="63" name="spawn" x="109" y="346">
   <point/>
  </object>
  <object id="64" name="entranceC" x="1661.17" y="752.167">
   <point/>
  </object>
 </objectgroup>
 <objectgroup color="#0000ff" id="5" name="collision">
  <object id="3" x="0" y="280" width="560" height="40"/>
  <object id="4" x="0" y="360" width="400" height="40"/>
  <object id="5" x="520" y="360" width="40" height="40"/>
  <object id="6" x="560" y="320" width="40" height="40"/>
  <object id="7" x="360" y="400" width="40" height="240"/>
  <object id="8" x="520" y="400" width="40" height="240"/>
  <object id="9" x="560" y="600" width="200" height="40"/>
  <object id="10" x="760" y="640" width="40" height="80"/>
  <object id="11" x="760" y="800" width="40" height="80"/>
  <object id="12" x="280" y="880" width="480" height="40"/>
  <object id="13" x="240" y="640" width="40" height="240"/>
  <object id="14" x="280" y="600" width="80" height="40"/>
  <object id="17" x="800" y="680" width="720" height="40"/>
  <object id="18" x="760" y="790" width="760" height="40"/>
  <object id="19" x="1480" y="600" width="40" height="80"/>
  <object id="20" x="1520" y="560" width="280" height="40"/>
  <object id="21" x="1800" y="600" width="40" height="240"/>
  <object id="23" x="1520" y="800" width="280" height="40"/>
  <object id="24" x="1480" y="1120" width="40" height="40"/>
  <object id="25" x="1440" y="1160" width="40" height="120"/>
  <object id="26" x="1800" y="1120" width="40" height="40"/>
  <object id="27" x="1840" y="1160" width="40" height="280"/>
  <object id="28" x="1200" y="1240" width="240" height="40"/>
  <object id="29" x="1160" y="832" width="40" height="408"/>
  <object id="31" x="1040" y="831.5" width="40" height="408.5"/>
  <object id="32" x="321.333" y="1126.67" width="40" height="160"/>
  <object id="33" x="1040" y="1400" width="160" height="40"/>
  <object id="34" x="1200" y="1360" width="280" height="40"/>
  <object id="35" x="1440" y="1400" width="40" height="40"/>
  <object id="36" x="1480" y="1440" width="360" height="40"/>
  <object id="43" x="1560" y="600" width="80" height="80"/>
  <object id="44" x="1680" y="600" width="80" height="80"/>
  <object id="45" x="1520" y="1120" width="120" height="80"/>
  <object id="46" x="1680" y="1120" width="120" height="80"/>
  <object id="47" x="1600" y="1080" width="160" height="40"/>
  <object id="48" x="1160" y="400" width="120" height="40"/>
  <object id="49" x="960" y="400" width="120" height="40"/>
  <object id="50" x="920" y="280" width="40" height="120"/>
  <object id="51" x="960" y="240" width="40" height="40"/>
  <object id="52" x="1240" y="240" width="40" height="40"/>
  <object id="53" x="1280" y="280" width="40" height="120"/>
  <object id="54" x="960" y="0" width="40" height="280"/>
  <object id="55" x="1240" y="0" width="40" height="240"/>
  <object id="56" x="1000" y="280" width="240" height="40"/>
  <object id="65" x="360" y="1240" width="680" height="40"/>
  <object id="66" x="320" y="1360" width="720" height="40"/>
  <object id="67" x="200" y="1400" width="120" height="40"/>
  <object id="69" x="200" y="1440" width="40" height="562"/>
  <object id="70" x="0" y="1400" width="80" height="600"/>
  <object id="71" x="-40" y="1200" width="40" height="200"/>
  <object id="72" x="0" y="1160" width="320" height="40"/>
 </objectgroup>
 <objectgroup color="#55aaff" id="9" name="enemycollision">
  <object id="84" x="0" y="280" width="560" height="40"/>
  <object id="85" x="0" y="360" width="400" height="40"/>
  <object id="86" x="520" y="360" width="40" height="40"/>
  <object id="87" x="560" y="320" width="40" height="40"/>
  <object id="88" x="360" y="400" width="40" height="240"/>
  <object id="89" x="520" y="400" width="40" height="240"/>
  <object id="90" x="560" y="600" width="200" height="40"/>
  <object id="91" x="760" y="640" width="40" height="80"/>
  <object id="92" x="760" y="800" width="40" height="80"/>
  <object id="93" x="280" y="880" width="480" height="40"/>
  <object id="94" x="240" y="640" width="40" height="240"/>
  <object id="95" x="280" y="600" width="80" height="40"/>
  <object id="96" x="800" y="680" width="720" height="40"/>
  <object id="97" x="760" y="790" width="760" height="40"/>
  <object id="98" x="1480" y="600" width="40" height="80"/>
  <object id="99" x="1520" y="560" width="280" height="40"/>
  <object id="100" x="1800" y="600" width="40" height="240"/>
  <object id="101" x="1520" y="800" width="280" height="40"/>
  <object id="102" x="1480" y="1120" width="40" height="40"/>
  <object id="103" x="1440" y="1160" width="40" height="120"/>
  <object id="104" x="1800" y="1120" width="40" height="40"/>
  <object id="105" x="1840" y="1160" width="40" height="280"/>
  <object id="106" x="1200" y="1240" width="240" height="40"/>
  <object id="107" x="1160" y="832" width="40" height="408"/>
  <object id="108" x="1040" y="831.5" width="40" height="408.5"/>
  <object id="109" x="321.333" y="1126.67" width="40" height="160"/>
  <object id="110" x="1040" y="1400" width="160" height="40"/>
  <object id="111" x="1200" y="1360" width="280" height="40"/>
  <object id="112" x="1440" y="1400" width="40" height="40"/>
  <object id="113" x="1480" y="1440" width="360" height="40"/>
  <object id="114" x="1560" y="600" width="80" height="80"/>
  <object id="115" x="1680" y="600" width="80" height="80"/>
  <object id="116" x="1520" y="1120" width="120" height="80"/>
  <object id="117" x="1680" y="1120" width="120" height="80"/>
  <object id="118" x="1600" y="1080" width="160" height="40"/>
  <object id="119" x="1160" y="400" width="120" height="40"/>
  <object id="120" x="960" y="400" width="120" height="40"/>
  <object id="121" x="920" y="280" width="40" height="120"/>
  <object id="122" x="960" y="240" width="40" height="40"/>
  <object id="123" x="1240" y="240" width="40" height="40"/>
  <object id="124" x="1280" y="280" width="40" height="120"/>
  <object id="125" x="960" y="0" width="40" height="280"/>
  <object id="126" x="1240" y="0" width="40" height="240"/>
  <object id="127" x="1000" y="280" width="240" height="40"/>
  <object id="128" x="360" y="1240" width="680" height="40"/>
  <object id="129" x="320" y="1360" width="720" height="40"/>
  <object id="130" x="200" y="1400" width="120" height="40"/>
  <object id="131" x="200" y="1440" width="40" height="562"/>
  <object id="132" x="0" y="1400" width="80" height="600"/>
  <object id="133" x="-40" y="1200" width="40" height="200"/>
  <object id="134" x="0" y="1160" width="320" height="40"/>
 </objectgroup>
</map>
