<?xml version="1.0" encoding="UTF-8"?>
<map version="1.10" tiledversion="1.11.2" orientation="orthogonal" renderorder="right-down" width="26" height="12" tilewidth="40" tileheight="40" infinite="0" nextlayerid="7" nextobjectid="19">
 <editorsettings>
  <export target="recep4.lua" format="lua"/>
 </editorsettings>
 <properties>
  <property name="music" value="wind_normal"/>
  <property name="name" value="Receptionist Stage"/>
 </properties>
 <tileset firstgid="1" source="../tilesets/Receptionist.tsx"/>
 <imagelayer id="2" name="bg" visible="0" repeatx="1">
  <image source="../../../assets/sprites/tilesets/receptionist bg.png" width="640" height="480"/>
 </imagelayer>
 <layer id="1" name="Tile Layer 1" width="26" height="12">
  <data encoding="csv">
0,282,283,283,283,284,0,0,0,0,0,0,0,0,0,0,0,0,0,0,0,0,0,0,0,0,
0,282,283,283,283,283,151,0,0,0,0,0,0,0,0,0,0,0,0,0,0,0,0,0,0,0,
0,282,283,283,283,284,0,0,0,0,0,0,0,0,0,0,0,0,0,0,0,0,0,0,0,0,
0,282,283,283,283,283,264,264,264,264,264,264,264,264,264,264,264,264,264,264,264,264,264,264,264,264,
0,282,283,283,283,283,283,283,283,283,283,283,283,283,283,283,283,283,283,283,283,283,283,283,283,283,
0,282,283,283,283,283,283,283,283,283,283,283,283,283,283,283,283,283,283,283,283,283,283,283,283,283,
0,282,283,283,283,283,283,283,283,283,283,283,283,283,283,283,283,283,283,283,283,283,283,283,283,283,
0,282,283,283,283,283,283,283,283,283,283,283,283,283,283,283,283,283,283,283,283,283,283,283,283,283,
0,282,283,283,283,283,283,283,283,283,283,283,283,283,283,283,283,283,283,283,283,283,283,283,283,283,
0,282,283,283,283,283,283,283,283,283,283,283,283,283,283,283,283,283,283,283,283,283,283,283,283,283,
0,301,302,302,302,302,302,302,302,302,302,302,302,302,302,302,302,302,302,302,302,302,302,302,302,302,
0,339,340,340,340,340,340,340,340,340,340,340,340,340,340,340,340,340,340,340,340,340,340,340,340,340
</data>
 </layer>
 <objectgroup id="3" name="objects">
  <object id="1" name="transition" x="42.5" y="1.5" width="192.5" height="19">
   <properties>
    <property name="map" value="recep3b"/>
    <property name="marker" value="entranceC"/>
   </properties>
  </object>
  <object id="16" name="savepoint" x="258" y="59">
   <properties>
    <property name="text1" value="* The power of emptiness and wind shines within you."/>
   </properties>
   <point/>
  </object>
 </objectgroup>
 <objectgroup color="#0055ff" id="5" name="collision">
  <object id="5" x="0" y="-5.33333" width="40" height="481.333"/>
  <object id="6" x="278.833" y="3.66667" width="772.167" height="114.333"/>
  <object id="7" x="41" y="404.667" width="1004" height="73.3333"/>
  <object id="17" x="240.333" y="79.6667" width="36.6667" height="41"/>
  <object id="18" x="239" y="-0.16665" width="42" height="40.3333"/>
 </objectgroup>
 <objectgroup color="#aa55ff" id="6" name="markers" visible="0">
  <object id="14" name="entranceA" x="103.333" y="94">
   <point/>
  </object>
 </objectgroup>
</map>
