<?xml version="1.0" encoding="UTF-8"?>
<map version="1.10" tiledversion="1.12.2" orientation="orthogonal" renderorder="right-down" width="75" height="30" tilewidth="40" tileheight="40" infinite="0" nextlayerid="8" nextobjectid="22">
 <editorsettings>
  <export target="recep7.lua" format="lua"/>
 </editorsettings>
 <properties>
  <property name="music" value="wind"/>
  <property name="name" value="Receptionest - Slide"/>
 </properties>
 <tileset firstgid="1" source="../tilesets/Receptionist.tsx"/>
 <imagelayer id="3" name="bg" offsetx="-1384.24" offsety="-339.394" parallaxx="0.25" parallaxy="0.25">
  <image source="../../../assets/sprites/tilesets/recep+wonderlandbg.png" width="3000" height="1240"/>
 </imagelayer>
 <imagelayer id="4" name="bg" offsetx="-710.242" offsety="-151.273" parallaxx="0.35" parallaxy="0.25">
  <image source="../../../assets/sprites/tilesets/buildings.png" width="631" height="594"/>
 </imagelayer>
 <imagelayer id="5" name="bg" offsetx="-277.697" offsety="-249.03" parallaxx="0.35" parallaxy="0.25">
  <image source="../../../assets/sprites/tilesets/buildings.png" width="631" height="594"/>
 </imagelayer>
 <layer id="1" name="Tile Layer 1" width="75" height="30">
  <data encoding="csv">
0,0,0,0,0,0,0,0,0,0,0,0,0,0,0,0,0,0,0,0,0,0,0,0,0,0,0,0,0,0,0,0,0,0,0,0,0,0,0,0,0,0,0,0,0,0,0,0,0,0,0,0,0,0,0,0,0,0,0,0,0,0,0,0,0,0,0,0,0,0,0,0,0,0,0,
0,0,0,0,0,0,0,0,0,0,0,0,0,0,0,0,0,0,0,0,0,0,0,0,0,0,0,0,0,0,0,0,0,0,0,0,0,0,0,0,0,0,0,0,0,0,0,0,0,0,0,0,0,0,0,0,0,0,0,0,0,0,0,0,0,0,0,0,0,0,0,0,0,0,0,
0,0,0,0,0,0,0,0,0,0,0,0,0,0,0,0,0,0,0,0,0,0,0,0,0,0,0,0,0,0,0,0,0,0,0,0,0,0,0,0,0,0,0,0,0,0,0,0,0,0,0,0,0,0,0,0,0,0,0,0,0,0,0,0,0,0,0,0,0,0,0,0,0,0,0,
0,0,0,0,0,0,0,0,0,0,0,0,0,0,0,0,0,0,0,0,0,0,0,0,0,0,0,0,0,0,0,0,0,0,0,0,0,0,0,0,0,0,0,0,0,0,0,0,0,0,0,0,0,0,0,0,0,0,0,0,0,0,0,0,0,0,0,0,0,0,0,0,0,0,0,
0,0,0,0,0,0,0,0,0,0,0,0,0,0,0,0,0,0,0,0,0,0,0,0,0,0,0,0,0,0,0,0,0,0,0,0,0,0,0,0,0,0,0,0,0,0,0,0,0,0,0,0,0,0,0,0,0,0,0,0,0,0,0,0,0,0,0,0,0,0,0,0,0,0,0,
0,0,0,0,0,0,0,0,0,0,0,0,0,0,0,0,0,0,0,0,0,0,0,0,0,0,0,0,0,0,0,0,0,0,0,0,0,0,0,0,0,0,0,0,0,0,0,0,0,0,0,0,0,0,0,0,0,0,0,0,0,0,0,0,0,0,0,0,0,0,0,0,0,0,0,
0,0,0,0,0,0,0,0,0,0,0,0,0,0,0,0,0,0,0,0,0,0,0,0,0,0,0,0,0,0,0,0,0,0,0,0,0,0,0,0,0,0,0,0,0,0,0,0,0,0,0,0,0,0,0,0,0,0,0,0,0,0,0,0,0,0,0,0,0,0,0,0,0,0,0,
0,0,0,0,0,0,0,0,0,0,0,0,0,0,0,0,0,0,0,0,0,0,0,0,0,0,0,0,0,0,0,0,0,0,0,0,0,0,0,0,0,0,0,0,0,0,0,0,0,0,0,0,0,0,0,0,0,0,0,0,0,0,0,0,0,0,0,0,0,0,0,0,0,0,0,
0,0,0,0,0,0,0,0,0,0,0,0,0,0,0,0,0,0,0,0,0,0,0,0,0,0,0,0,0,0,0,0,0,0,0,0,0,0,0,0,0,0,0,0,0,0,0,0,0,0,0,0,0,0,0,0,0,0,0,0,0,0,0,0,0,0,0,0,0,0,0,0,0,0,0,
0,0,0,0,0,0,0,0,0,0,0,0,0,0,0,0,0,0,0,0,0,0,0,0,0,0,0,0,0,0,0,0,0,0,0,0,0,0,0,0,0,0,0,0,0,0,0,0,0,0,0,0,0,0,0,0,0,0,0,0,0,0,0,0,0,0,0,0,0,0,0,0,0,0,0,
0,0,0,0,0,0,0,0,0,0,0,0,0,0,0,0,0,0,0,0,0,0,0,0,0,0,0,0,0,0,0,0,0,0,0,0,0,0,0,0,0,0,0,0,0,0,0,0,0,0,0,0,0,0,0,0,0,0,0,0,0,0,0,0,0,0,0,0,0,0,0,0,0,0,0,
0,0,0,0,0,0,0,0,0,0,0,0,0,0,0,0,0,0,0,0,0,0,0,0,0,0,0,0,0,0,0,0,0,0,0,0,0,0,0,0,0,0,0,0,0,0,0,0,0,0,0,0,0,0,0,0,0,0,0,0,0,0,0,0,0,0,0,0,0,0,0,0,0,0,0,
0,0,0,0,0,0,0,0,0,0,0,0,0,0,0,0,0,0,0,0,0,0,0,0,0,0,0,0,0,0,0,0,0,0,0,0,0,0,0,0,0,0,0,0,0,0,0,0,0,0,0,0,0,0,0,0,0,0,0,0,0,0,0,0,0,0,0,0,0,0,0,0,0,0,0,
0,0,0,0,0,0,0,0,0,0,0,0,0,0,0,0,0,0,0,0,0,0,0,0,0,0,0,0,0,0,0,0,0,0,0,0,0,0,0,0,0,0,0,0,0,0,0,0,0,0,0,0,0,0,0,0,0,0,0,0,0,0,0,0,0,0,0,0,0,0,0,0,0,0,0,
0,0,0,0,0,0,0,0,0,0,0,0,0,0,0,0,0,0,0,0,0,0,0,0,0,0,0,0,0,0,0,0,0,0,0,0,0,0,0,0,0,0,0,0,0,0,0,0,0,0,0,0,0,0,0,0,0,0,0,0,0,0,0,0,0,0,0,0,0,0,0,0,0,0,0,
0,0,0,0,0,0,0,0,0,0,0,0,0,0,0,0,0,0,0,0,0,0,0,0,0,0,0,0,0,0,0,0,0,0,0,0,0,0,0,0,0,0,0,0,0,0,0,0,0,0,0,0,0,0,0,0,0,0,0,0,0,0,0,0,0,0,0,0,0,0,0,0,0,0,0,
0,0,0,0,0,0,0,0,0,0,0,0,0,0,0,0,0,0,0,0,0,0,0,0,0,0,0,0,0,0,0,0,0,0,0,0,0,0,0,0,0,0,0,0,0,0,0,0,0,0,0,0,0,0,0,0,0,0,0,0,0,0,0,0,0,0,0,0,0,0,0,0,0,0,0,
0,0,0,0,0,0,263,264,264,264,264,264,264,264,264,264,264,264,264,264,264,264,264,264,264,264,264,264,264,264,264,264,264,264,264,264,264,264,264,264,264,264,264,264,264,264,264,264,264,264,264,264,264,264,264,264,264,264,264,264,264,264,264,264,264,264,264,264,264,264,264,265,0,0,0,
0,0,0,0,0,0,282,283,283,283,283,283,283,283,283,283,283,283,283,283,283,283,283,283,283,283,283,283,283,283,283,283,283,283,283,283,283,283,283,283,283,283,283,283,283,283,283,283,283,283,283,283,283,283,283,283,283,283,283,283,283,283,283,283,283,283,283,283,283,283,283,284,0,0,0,
62,62,62,62,62,63,282,283,283,283,283,283,283,283,283,283,283,283,283,283,283,283,283,283,283,283,283,283,283,283,283,283,283,283,283,283,283,283,283,283,283,283,283,283,283,283,283,283,283,283,283,283,283,283,283,283,283,283,283,283,283,283,283,283,283,283,283,283,283,283,283,284,0,0,0,
81,81,81,81,81,82,282,283,283,283,283,283,283,283,283,283,283,283,283,283,283,283,283,283,283,283,283,283,283,283,283,283,283,283,283,283,283,283,283,283,283,283,283,283,283,283,283,283,283,283,283,283,283,283,283,283,283,283,283,283,283,283,283,283,283,283,283,283,283,283,283,284,0,0,0,
0,0,0,0,0,0,301,302,302,302,302,302,302,302,302,302,302,302,302,302,302,302,302,302,302,302,302,302,302,302,302,302,302,302,302,302,302,302,302,302,302,302,302,302,302,302,302,302,302,302,302,302,302,302,302,302,302,302,302,302,302,302,302,302,302,302,302,70,302,302,302,303,0,0,0,
0,0,0,0,0,0,320,321,321,321,321,321,321,321,321,321,321,321,321,321,321,321,321,321,321,321,321,321,321,321,321,321,321,321,321,321,321,321,321,321,321,321,321,321,321,321,321,321,321,321,321,321,321,321,321,321,321,321,321,321,321,321,321,321,321,321,321,89,321,321,321,322,0,0,0,
0,0,0,0,0,0,320,321,321,321,321,321,321,321,321,321,321,321,321,321,317,321,321,321,321,321,321,321,321,321,321,321,321,321,321,321,321,321,321,321,321,321,321,321,321,321,321,321,317,321,321,321,321,321,321,321,321,321,321,321,321,321,321,321,321,321,321,89,321,321,321,322,0,0,0,
0,0,0,0,0,0,320,321,321,321,321,321,321,321,321,321,321,321,321,321,317,317,321,321,321,321,321,321,321,321,321,321,321,321,321,321,321,321,321,321,321,321,321,321,321,321,321,321,317,317,321,321,321,321,321,321,321,321,321,321,321,321,321,321,321,321,321,89,321,321,321,322,0,0,0,
0,0,0,0,0,0,320,321,321,321,321,321,321,321,321,317,317,317,317,317,317,317,317,321,321,321,321,321,321,321,321,321,321,321,321,321,321,321,321,321,321,321,321,317,317,317,317,317,317,317,317,321,321,321,321,321,321,321,321,321,321,321,321,321,321,321,321,89,321,321,321,322,0,0,0,
0,0,0,0,0,0,320,321,321,321,321,321,321,321,321,321,321,321,321,321,317,317,321,321,321,321,321,321,321,321,321,321,321,321,321,321,321,321,321,321,321,321,321,321,321,321,321,321,317,317,321,321,321,321,321,321,321,321,321,321,321,321,321,321,321,321,321,89,321,321,321,322,0,0,0,
0,0,0,0,0,0,320,321,321,321,321,321,321,321,321,321,321,321,321,321,317,321,321,321,321,321,321,321,321,321,321,321,321,321,321,321,321,321,321,321,321,321,321,321,321,321,321,321,317,321,321,321,321,321,321,321,321,321,321,321,321,321,321,321,321,321,321,89,321,321,321,322,0,0,0,
0,0,0,0,0,0,320,321,321,321,321,321,321,321,321,321,321,321,321,321,321,321,321,321,321,321,321,321,321,321,321,321,321,321,321,321,321,321,321,321,321,321,321,321,321,321,321,321,321,321,321,321,321,321,321,321,321,321,321,321,321,321,321,321,321,321,321,89,321,321,321,322,0,0,0,
0,0,0,0,0,0,320,321,321,321,321,321,321,321,321,321,321,321,321,321,321,321,321,321,321,321,321,321,321,321,321,321,321,321,321,321,321,321,321,321,321,321,321,321,321,321,321,321,321,321,321,321,321,321,321,321,321,321,321,321,321,321,321,321,321,321,321,89,321,321,321,322,0,0,0
</data>
 </layer>
 <objectgroup color="#aa00ff" id="6" name="markers">
  <object id="17" name="spawn" x="119.333" y="803.333">
   <point/>
  </object>
  <object id="18" name="entranceA" x="38" y="809.667">
   <point/>
  </object>
  <object id="21" name="savespawn" x="2680" y="720">
   <point/>
  </object>
 </objectgroup>
 <objectgroup color="#ff55ff" id="7" name="objects">
  <object id="11" name="transition" x="2680" y="1160" width="40" height="40">
   <properties>
    <property name="map" value="forest1"/>
    <property name="marker" value="entranceA"/>
   </properties>
  </object>
  <object id="14" name="slidearea" x="2680" y="840" width="40" height="365.333"/>
  <object id="19" name="transition" x="-0.666667" y="766.667" width="16.6667" height="63.3333">
   <properties>
    <property name="map" value="recep5"/>
    <property name="marker" value="entranceC"/>
   </properties>
  </object>
  <object id="20" name="savepoint" x="2800" y="720">
   <properties>
    <property name="marker" value="savespawn"/>
    <property name="text1" value="* Ralsei is traveling with you again."/>
    <property name="text2" value="* The power of copy and pasted trees shines within you"/>
   </properties>
   <point/>
  </object>
 </objectgroup>
 <objectgroup color="#0000ff" id="2" name="collision">
  <object id="1" x="240" y="640" width="2640" height="40"/>
  <object id="2" x="2880" y="680" width="40" height="160"/>
  <object id="3" x="2720" y="840" width="160" height="40"/>
  <object id="4" x="2720" y="880" width="40" height="320"/>
  <object id="5" x="2640" y="840" width="40" height="320"/>
  <object id="6" x="2640" y="1160" width="40" height="40"/>
  <object id="7" x="240" y="840" width="2400" height="40"/>
  <object id="8" x="200" y="680" width="40" height="80"/>
  <object id="9" x="-40" y="720" width="240" height="40"/>
  <object id="10" x="0" y="831" width="240" height="40"/>
 </objectgroup>
</map>
