<?xml version="1.0" encoding="UTF-8"?>
<map version="1.10" tiledversion="1.11.2" orientation="orthogonal" renderorder="right-down" width="20" height="12" tilewidth="40" tileheight="40" infinite="0" nextlayerid="7" nextobjectid="22">
 <editorsettings>
  <export target="room2.lua" format="lua"/>
 </editorsettings>
 <properties>
  <property name="name" value="Test Map - Room 2"/>
 </properties>
 <tileset firstgid="1" source="../tilesets/castle.tsx"/>
 <layer id="1" name="tiles" width="20" height="12">
  <data encoding="csv">
0,0,0,0,22,23,23,23,23,23,23,23,23,23,23,23,23,23,24,0,
0,0,0,0,22,23,23,23,23,23,23,23,23,23,23,23,23,23,24,0,
0,0,0,0,26,27,27,27,27,27,27,27,27,27,27,27,27,27,28,0,
0,0,0,0,6,7,7,7,7,7,7,7,7,7,7,7,7,7,8,0,
0,0,0,0,10,11,11,11,11,11,11,11,11,11,11,11,11,11,12,0,
0,0,0,0,10,11,11,11,11,11,11,11,11,11,11,11,11,11,12,0,
0,0,0,0,10,11,11,11,11,11,11,11,11,11,11,11,11,11,12,0,
0,0,0,0,10,11,11,11,11,11,11,11,11,11,11,11,11,11,12,0,
0,0,0,0,10,11,11,11,11,11,11,11,11,11,11,11,11,11,12,0,
0,0,0,0,14,15,15,15,15,15,15,15,15,15,15,15,15,15,16,0,
0,0,0,0,0,0,0,0,0,0,0,0,0,0,0,0,0,0,0,0,
0,0,0,0,0,0,0,0,0,0,0,0,0,0,0,0,0,0,0,0
</data>
 </layer>
 <layer id="2" name="decal" width="20" height="12">
  <data encoding="csv">
0,0,0,0,0,0,0,0,0,0,0,0,0,0,0,0,0,0,0,0,
0,0,0,0,0,0,0,0,0,0,0,0,0,0,0,0,0,0,0,0,
0,0,0,0,0,0,0,0,0,0,0,0,0,0,0,0,0,0,0,0,
0,0,0,0,0,0,0,0,0,0,0,0,0,0,0,0,0,0,0,0,
0,0,0,0,0,0,0,0,0,0,0,0,0,0,0,0,0,0,0,0,
0,0,0,0,0,0,0,0,0,0,30,31,32,0,0,0,0,0,0,0,
0,0,0,0,0,0,0,0,0,0,34,35,36,0,0,0,0,0,0,0,
0,0,0,0,0,0,0,0,0,0,38,39,40,0,0,0,0,0,0,0,
0,0,0,0,0,0,0,0,0,0,0,0,0,0,0,0,0,0,0,0,
0,0,0,0,0,0,0,0,0,0,0,0,0,0,0,0,0,0,0,0,
0,0,0,0,0,0,0,0,0,0,0,0,0,0,0,0,0,0,0,0,
0,0,0,0,0,0,0,0,0,0,0,0,0,0,0,0,0,0,0,0
</data>
 </layer>
 <objectgroup color="#0000ff" id="3" name="collision" opacity="0.5">
  <object id="2" x="0" y="400" width="760" height="40"/>
  <object id="3" x="498" y="514" width="40" height="280"/>
  <object id="4" x="160" y="80" width="600" height="40"/>
 </objectgroup>
 <objectgroup color="#7f00ff" id="4" name="markers">
  <object id="15" name="spawn" x="241.776" y="263.829">
   <point/>
  </object>
  <object id="18" name="ralsei" x="933.04" y="263.82">
   <point/>
  </object>
 </objectgroup>
 <objectgroup color="#ff00ff" id="5" name="objects">
  <object id="19" name="enemy" x="578.037" y="228.35" width="40" height="40">
   <properties>
    <property name="actor" value="dummy"/>
    <property name="chase" value="true"/>
    <property name="encounter" value="dummy"/>
    <property name="once" type="bool" value="true"/>
    <property name="path" value="idk"/>
   </properties>
  </object>
 </objectgroup>
 <objectgroup id="6" name="paths">
  <object id="20" name="idk" x="269.759" y="341.124">
   <polygon points="0,0 279.75,14.273 42.8189,47.1008"/>
  </object>
 </objectgroup>
</map>
