<?xml version="1.0" encoding="UTF-8"?>
<map version="1.10" tiledversion="1.11.2" orientation="orthogonal" renderorder="right-down" width="50" height="12" tilewidth="40" tileheight="40" infinite="0" nextlayerid="9" nextobjectid="35">
 <editorsettings>
  <export target="room2.lua" format="lua"/>
 </editorsettings>
 <properties>
  <property name="name" value="Test Map - Room 2"/>
 </properties>
 <tileset firstgid="1" name="castle" tilewidth="40" tileheight="40" tilecount="40" columns="4">
  <image source="../../../assets/sprites/tilesets/castle.png" width="160" height="400"/>
 </tileset>
 <tileset firstgid="41" source="../tilesets/castle.tsx"/>
 <layer id="1" name="tiles" width="50" height="12">
  <data encoding="csv">
0,0,0,0,22,23,23,23,23,23,23,23,23,23,23,23,23,23,24,0,0,0,0,0,0,0,0,0,0,0,0,0,0,0,0,0,0,0,0,0,0,0,0,0,0,0,0,0,0,0,
0,0,0,0,22,23,23,23,23,23,23,23,23,23,23,23,23,23,24,0,0,0,0,0,0,0,0,0,0,0,0,0,0,0,0,0,0,0,0,0,0,0,0,0,0,0,0,0,0,0,
0,0,0,0,26,27,27,27,27,27,27,27,27,27,27,27,27,27,28,0,0,0,0,0,0,0,0,0,0,0,0,0,0,0,0,0,0,0,0,0,0,0,0,0,0,0,0,0,0,0,
0,0,0,0,6,7,7,7,7,7,7,7,7,7,7,7,7,7,8,0,0,0,0,0,0,0,0,0,0,0,0,0,0,0,0,0,0,0,0,0,0,0,0,0,0,0,0,0,0,0,
0,0,0,0,10,11,11,11,11,11,11,11,11,11,11,11,11,11,12,0,0,0,0,0,0,0,0,0,0,0,0,0,0,0,0,0,0,0,0,0,0,0,0,0,0,0,0,0,0,0,
0,0,0,0,10,11,11,11,11,11,11,11,11,11,11,11,11,11,12,0,0,0,0,0,0,0,0,0,0,0,0,0,0,0,0,0,0,0,0,0,0,0,0,0,0,0,0,0,0,0,
0,0,0,0,10,11,11,11,11,11,11,11,11,11,11,11,11,11,12,0,0,0,0,0,0,0,0,0,0,0,0,0,0,0,0,0,0,0,0,0,0,0,0,0,0,0,0,0,0,0,
0,0,0,0,10,11,11,11,11,11,11,11,11,11,11,11,11,11,12,0,0,0,0,0,0,0,0,0,0,0,0,0,0,0,0,0,0,0,0,0,0,0,0,0,0,0,0,0,0,0,
0,0,0,0,10,11,11,11,11,11,11,11,11,11,11,11,11,11,12,0,0,0,0,0,0,0,0,0,0,0,0,0,0,0,0,0,0,0,0,0,0,0,0,0,0,0,0,0,0,0,
0,0,0,0,14,15,15,15,15,15,15,15,15,15,15,15,15,15,16,0,0,0,0,0,0,0,0,0,0,0,0,0,0,0,0,0,0,0,0,0,0,0,0,0,0,0,0,0,0,0,
0,0,0,0,0,0,0,0,0,0,0,0,0,0,0,0,0,0,0,0,0,0,0,0,0,0,0,0,0,0,0,0,0,0,0,0,0,0,0,0,0,0,0,0,0,0,0,0,0,0,
0,0,0,0,0,0,0,0,0,0,0,0,0,0,0,0,0,0,0,0,0,0,0,0,0,0,0,0,0,0,0,0,0,0,0,0,0,0,0,0,0,0,0,0,0,0,0,0,0,0
</data>
 </layer>
 <layer id="2" name="decal" width="50" height="12">
  <data encoding="csv">
0,0,0,58,59,59,59,59,59,59,59,59,59,59,59,59,59,59,59,59,59,59,59,59,59,59,59,59,59,59,59,59,59,59,60,0,0,0,0,0,0,0,0,0,0,0,0,0,0,0,
0,0,0,62,63,61,61,0,0,0,0,0,0,61,61,61,0,0,63,63,61,63,63,63,63,63,63,63,63,63,63,63,61,61,64,0,0,0,0,0,0,0,0,0,0,0,0,0,0,0,
0,0,0,62,63,63,63,63,63,63,61,63,63,63,63,63,63,63,63,63,63,63,63,63,63,63,61,61,61,61,63,63,63,63,64,0,0,0,0,0,0,0,0,0,0,0,0,0,0,0,
0,0,0,62,0,0,0,0,0,0,0,0,0,0,0,0,0,0,47,47,47,47,47,47,47,47,47,47,47,47,47,47,47,47,64,0,0,0,0,0,0,0,0,0,0,0,0,0,0,0,
0,0,0,62,0,0,0,0,0,0,0,0,0,0,0,0,0,0,51,51,51,51,51,51,51,51,51,51,51,51,51,51,51,51,64,0,0,0,0,0,0,0,0,0,0,0,0,0,0,0,
0,0,0,62,0,0,0,0,0,0,57,51,51,0,0,0,0,0,51,51,51,51,51,51,51,51,51,57,51,51,51,51,51,51,64,0,0,0,0,0,0,0,0,0,0,0,0,0,0,0,
0,0,0,62,0,0,0,0,0,51,51,51,51,0,0,0,0,0,51,51,51,51,51,51,51,51,51,51,51,51,51,51,51,51,64,0,0,0,0,0,0,0,0,0,0,0,0,0,0,0,
0,0,0,62,0,0,0,0,0,51,51,51,51,0,0,0,0,0,51,51,51,51,51,51,51,51,51,51,51,51,51,51,51,51,64,0,0,0,0,0,0,0,0,0,0,0,0,0,0,0,
0,0,0,62,0,0,0,57,0,0,0,0,0,0,0,0,0,0,51,51,51,51,51,57,51,51,51,51,51,51,51,51,57,51,64,0,0,0,0,0,0,0,0,0,0,0,0,0,0,0,
0,0,0,62,0,0,0,0,0,0,0,0,0,0,0,0,0,55,55,55,55,55,55,55,55,55,55,55,55,55,55,55,55,55,64,0,0,0,0,0,0,0,0,0,0,0,0,0,0,0,
0,0,0,63,63,63,63,63,63,63,63,63,63,63,63,63,63,63,63,63,63,63,63,63,63,63,63,63,63,63,63,63,63,63,64,0,0,0,0,0,0,0,0,0,0,0,0,0,0,0,
0,0,0,0,0,0,0,0,0,0,0,0,0,0,0,0,0,0,0,0,0,0,0,0,0,0,0,0,0,0,0,0,0,0,0,0,0,0,0,0,0,0,0,0,0,0,0,0,0,0
</data>
 </layer>
 <objectgroup color="#0000ff" id="3" name="collision" opacity="0.5">
  <object id="2" x="129.333" y="400" width="630.667" height="40"/>
  <object id="4" x="119.812" y="79.2792" width="1281.33" height="40"/>
  <object id="26" x="122.748" y="124.175" width="35.6824" height="276.896"/>
  <object id="30" x="1358.67" y="82.6667" width="38.6667" height="354.667"/>
  <object id="31" x="120.668" y="397.333" width="1281.33" height="40"/>
 </objectgroup>
 <objectgroup color="#7f00ff" id="4" name="markers">
  <object id="33" name="spawn" x="420" y="266.667">
   <point/>
  </object>
 </objectgroup>
 <objectgroup color="#ff00ff" id="5" name="objects">
  <object id="32" name="script" x="534.666" y="88" width="48" height="308">
   <properties>
    <property name="cutscene" value="kris.shadow"/>
    <property name="once" type="bool" value="false"/>
   </properties>
  </object>
 </objectgroup>
 <objectgroup id="7" name="battleareas"/>
 <objectgroup id="6" name="paths"/>
</map>
