<?xml version="1.0" encoding="UTF-8"?>
<map version="1.10" tiledversion="1.10.2" orientation="orthogonal" renderorder="right-down" width="23" height="12" tilewidth="40" tileheight="40" infinite="0" nextlayerid="7" nextobjectid="34">
 <editorsettings>
  <export target="data.lua" format="lua"/>
 </editorsettings>
 <properties>
  <property name="border" value="leaves"/>
  <property name="inside" type="bool" value="true"/>
  <property name="light" type="bool" value="true"/>
  <property name="music" value="deltarune/muscle"/>
 </properties>
 <tileset firstgid="1" source="../../../../../tilesets/hometownobjects.tsx"/>
 <imagelayer id="2" name="room">
  <image source="../../../../../../../assets/sprites/world/maps/hometown/interior/sans_store.png" width="920" height="480"/>
 </imagelayer>
 <objectgroup color="#0000ff" id="3" name="collision">
  <object id="1" x="520" y="400" width="40" height="80"/>
  <object id="2" x="20" y="400" width="500" height="40"/>
  <object id="3" x="20" y="40" width="40" height="360"/>
  <object id="4" x="20" y="0" width="820" height="40"/>
  <object id="5" x="640" y="400" width="40" height="80"/>
  <object id="6" x="680" y="400" width="160" height="40"/>
  <object id="7" x="800" y="40" width="40" height="360"/>
  <object id="12" x="60" y="160" width="20" height="40"/>
  <object id="13" x="222" y="160" width="578" height="40"/>
  <object id="21" x="102" y="284" width="330" height="78"/>
 </objectgroup>
 <objectgroup color="#004ec2" id="6" name="objects_sans">
  <object id="32" name="npc" x="543" y="164">
   <properties>
    <property name="actor" value="sans"/>
    <property name="cutscene" value="hometown.sans"/>
   </properties>
   <point/>
  </object>
 </objectgroup>
 <objectgroup color="#ff00ff" id="4" name="objects">
  <object id="8" gid="20" x="94" y="370" width="344" height="150"/>
  <object id="9" gid="19" x="654" y="382" width="52" height="56"/>
  <object id="11" gid="17" x="718" y="388" width="58" height="166"/>
  <object id="14" name="interactable" x="670" y="160" width="28" height="40">
   <properties>
    <property name="cutscene" value="hometown.sansplin"/>
   </properties>
  </object>
  <object id="16" name="interactable" x="80" y="160" width="142" height="40">
   <properties>
    <property name="solid" type="bool" value="true"/>
    <property name="text" value="{hometown.text.various_frozen_bagels_and_treats_781b7bd0bf}"/>
   </properties>
  </object>
  <object id="17" name="interactable" x="112" y="322" width="58" height="40">
   <properties>
    <property name="text1" value="{hometown.text.ice_e_s_pizza_pin_ups_mangazine_fc38c83bd9}"/>
    <property name="text2" value="{hometown.text.hot_and_fresh_chease_wait_5_pepperonie_wait_5_ju_74a9d265e2}"/>
   </properties>
  </object>
  <object id="18" name="interactable" x="178" y="322" width="60" height="40">
   <properties>
    <property name="text1" value="{hometown.text.there_re_some_car_magazines_on_the_racks_9a7cd452c4}"/>
    <property name="text2" value="{hometown.text.it_might_be_fun_to_look_at_them_ade6ea9fc5}"/>
    <property name="text3" value="{hometown.text.but_there_s_other_people_around_73719bb0f7}"/>
   </properties>
  </object>
  <object id="19" name="interactable" x="246" y="322" width="60" height="40">
   <properties>
    <property name="text" value="{hometown.text.it_s_a_zine_for_jockington_fans_seems_popular_3039158dc6}"/>
   </properties>
  </object>
  <object id="20" name="interactable" x="320" y="322" width="104" height="40">
   <properties>
    <property name="text1" value="{hometown.text.it_s_a_bunch_of_cards_and_heart_shaped_chocolate_b5d36d7398}"/>
    <property name="text2">* &quot;Get well soon!&quot;
* &quot;I'm glad your bike crashed&quot;</property>
   </properties>
  </object>
  <object id="22" name="interactable" x="658" y="336" width="42" height="42">
   <properties>
    <property name="solid" type="bool" value="true"/>
    <property name="text" value="{hometown.text.it_s_a_trash_can_4b208a8154}"/>
   </properties>
  </object>
  <object id="23" name="interactable" x="718" y="328" width="58" height="58">
   <properties>
    <property name="solid" type="bool" value="true"/>
    <property name="text1" value="{hometown.text.you_can_t_reach_the_top_wait_5_rendering_it_impo_9756129751}"/>
    <property name="text2" value="{hometown.text.you_ll_never_be_able_to_buy_something_in_this_st_d19e1c9965}"/>
   </properties>
  </object>
  <object id="24" name="interactable" x="712" y="200" width="80" height="18">
   <properties>
    <property name="text" value="{hometown.text.it_s_a_rack_of_candy_wait_5_jerky_wait_5_and_var_89fc2493ee}"/>
   </properties>
  </object>
  <object id="25" name="interactable" x="240" y="200" width="80" height="16">
   <properties>
    <property name="text1" value="{hometown.text.loose_eggs_1_d8a7efaee0}"/>
    <property name="text2" value="{hometown.text.it_s_too_much_responsibility_for_an_egg_380c8020c0}"/>
   </properties>
  </object>
  <object id="26" name="interactable" x="324" y="200" width="58" height="16">
   <properties>
    <property name="text1" value="{hometown.text.it_looks_like_a_normal_basket_of_fruit_wait_5_bu_b9b759fb74}"/>
    <property name="text2" value="{hometown.text.wait_5_it_s_incredibly_deep_and_holds_all_sorts__ed00310da9}"/>
   </properties>
  </object>
  <object id="27" name="interactable" x="422" y="200" width="58" height="16">
   <properties>
    <property name="text" value="{hometown.text.grapes_wait_5_melons_wait_5_oranges_wait_5_and_t_5849572366}"/>
   </properties>
  </object>
  <object id="28" name="interactable" x="384" y="200" width="36" height="16">
   <properties>
    <property name="text" value="{hometown.text.it_looks_like_a_normal_palm_tree_wait_5_but_it_s_97ac8b475b}"/>
   </properties>
  </object>
  <object id="29" name="transition" x="560" y="480" width="80" height="40">
   <properties>
    <property name="facing" value="down"/>
    <property name="map" value="light/hometown/town_mid"/>
    <property name="marker" value="entrysans"/>
   </properties>
  </object>
  <object id="31" gid="66" x="476" y="206" width="228" height="98"/>
 </objectgroup>
 <objectgroup color="#7f00ff" id="5" name="markers">
  <object id="30" name="spawn" x="600" y="440">
   <point/>
  </object>
 </objectgroup>
</map>
